(File created: Thursday November 20 2025 - 12:44 PM)
(for Carvera from Vectric)
(VECTRIC POST REVISION)
(AA6001CAC4E9696A3EC4F9B49CBCFB6D)
G90G54
G17
G21

T1M6
G0Z20.320
G0X0.000Y0.000
S10000M3
G0X63.124Y0.302
G0Z5.080
G1Z-1.000F300.0
G1X0.376F1000.0
Y2.524
X63.124
Y4.747
X0.376
Y6.969
X63.124
Y9.192
X0.376
Y11.414
X63.124
Y13.637
X0.376
Y15.859
X63.124
Y18.082
X0.376
Y20.304
X63.124
Y22.527
X32.614
X31.788Z-0.808
X31.712Z-0.747
X31.562Z-0.701
X31.487
X31.337Z-0.660
X30.886Z-0.612
X30.736Z-0.571
X30.360Z-0.537
X30.209Z-0.522
X30.134Z-0.499
X29.984
X29.759Z-0.471
X29.683
X28.556Z0.548
X28.481Z0.598
X26.753Z0.610
X26.151Z0.609
X26.001Z0.587
X24.949Z-0.012
X24.874Z-0.079
X24.724Z-0.355
X24.573Z-0.518
X23.596Z-1.000
X0.376
Y24.749
X22.093
X23.221Z-0.941
X23.822Z0.031
X23.972Z0.235
X24.122Z0.366
X24.348Z0.461
X25.024Z0.610
X29.383
X29.458Z0.595
X30.435Z-0.277
X30.585Z-0.471
X30.736Z-0.499
X30.961Z-0.614
X31.562Z-1.000
X63.124
Y26.972
X30.134
X29.308Z0.046
X29.157Z0.356
X29.007Z0.482
X28.331Z0.550
X27.128Z0.580
X26.001Z0.544
X24.498Z0.417
X24.348Z0.396
X24.198Z0.316
X23.972Z0.017
X23.070Z-1.000
X0.376
Y29.194
X23.972
X25.024Z-0.730
X25.099Z-0.665
X25.175Z-0.569
X25.325Z-0.566
X25.400Z-0.496
X25.550Z-0.476
X25.701Z-0.416
X26.678Z-0.426
X27.354Z-0.682
X28.105Z-0.990
X28.331Z-1.000
X63.124
Y31.417
X0.376
Y33.639
X63.124
Y35.862
X0.376
Y38.084
X63.124
Y40.307
X0.376
Y42.529
X63.124
Y44.752
X0.376
Y46.974
X63.124
Y49.197
X0.376
Y51.419
X63.124
Y53.642
X0.376
Y55.864
X63.124
Y58.087
X0.376
Y60.309
X63.124
Y62.532
X0.376
Y64.754
X63.124
Y66.977
X0.376
Y69.199
X63.124
Y71.422
X0.376
Y73.644
X63.124
Y75.867
X0.376
Y78.089
X63.124
Y80.312
X0.376
Y82.534
X63.124
Y84.757
X0.376
Y86.979
X63.124
Y88.287
X63.034Y88.523
X0.376
G0Z5.080
G0X63.124Y0.302
G1Z-2.000F300.0
G1X0.376F1000.0
Y2.524
X63.124
Y4.747
X0.376
Y6.969
X63.124
Y9.192
X0.376
Y11.414
X63.124
Y13.637
X0.376
Y15.859
X63.124
Y18.082
X0.376
Y20.304
X27.955
X28.180Z-1.936
X28.331Z-1.854
X29.308Z-1.518
X29.909
X30.059Z-1.647
X30.285
X30.811Z-2.000
X63.124
Y22.527
X33.065
X32.614Z-1.912
X31.788Z-0.808
X31.712Z-0.747
X31.562Z-0.701
X31.487
X31.337Z-0.660
X30.886Z-0.612
X30.736Z-0.571
X30.360Z-0.537
X30.209Z-0.522
X30.134Z-0.499
X29.984
X29.759Z-0.471
X29.683
X28.556Z0.548
X28.481Z0.598
X26.753Z0.610
X26.151Z0.609
X26.001Z0.587
X24.949Z-0.012
X24.874Z-0.079
X24.724Z-0.355
X24.573Z-0.518
X23.596Z-2.000
X0.376
Y24.749
X22.093
X23.221Z-0.941
X23.822Z0.031
X23.972Z0.235
X24.122Z0.366
X24.348Z0.461
X25.024Z0.610
X29.383
X29.458Z0.595
X30.435Z-0.277
X30.585Z-0.471
X30.736Z-0.499
X30.961Z-0.614
X31.562Z-1.204
X31.938Z-1.697
X32.088Z-1.816
X32.915Z-2.000
X63.124
Y26.972
X30.285
X30.134Z-1.912
X29.308Z0.046
X29.157Z0.356
X29.007Z0.482
X28.331Z0.550
X27.128Z0.580
X26.001Z0.544
X24.498Z0.417
X24.348Z0.396
X24.198Z0.316
X23.972Z0.017
X23.070Z-1.386
X22.770Z-1.840
X22.244Z-2.000
X0.376
Y29.194
X23.972
X25.024Z-0.730
X25.099Z-0.665
X25.175Z-0.569
X25.325Z-0.566
X25.400Z-0.496
X25.550Z-0.476
X25.701Z-0.416
X26.678Z-0.426
X27.354Z-0.682
X28.105Z-0.990
X28.331Z-1.265
X28.481Z-1.562
X28.556Z-1.671
X29.533Z-2.000
X63.124
Y31.417
X0.376
Y33.639
X63.124
Y35.862
X0.376
Y38.084
X63.124
Y40.307
X0.376
Y42.529
X63.124
Y44.752
X0.376
Y46.974
X63.124
Y49.197
X0.376
Y51.419
X63.124
Y53.642
X0.376
Y55.864
X63.124
Y58.087
X0.376
Y60.309
X63.124
Y62.532
X0.376
Y64.754
X63.124
Y66.977
X0.376
Y69.199
X63.124
Y71.422
X0.376
Y73.644
X63.124
Y75.867
X0.376
Y78.089
X63.124
Y80.312
X0.376
Y82.534
X63.124
Y84.757
X0.376
Y86.979
X63.124
Y88.287
X63.034Y88.523
X0.376
G0Z5.080
G0X63.124Y0.302
G1Z-3.000F300.0
G1X0.376F1000.0
Y2.524
X63.124
Y4.747
X0.376
Y6.969
X63.124
Y9.192
X0.376
Y11.414
X63.124
Y13.637
X0.376
Y15.859
X63.124
Y18.082
X0.376
Y20.304
X25.475
X26.602Z-2.942
X27.279Z-2.626
X27.730Z-2.386
X27.955Z-2.173
X28.180Z-1.936
X28.331Z-1.854
X29.308Z-1.518
X29.909
X30.059Z-1.647
X30.285
X30.811Z-2.089
X30.961Z-2.287
X31.036Z-2.348
X31.262Z-2.646
X31.487Z-2.683
X31.938Z-2.837
X32.088Z-2.921
X32.163Z-2.940
X32.539Z-3.000
X63.124
Y22.527
X34.042
X33.065Z-2.487
X32.614Z-1.912
X31.788Z-0.808
X31.712Z-0.747
X31.562Z-0.701
X31.487
X31.337Z-0.660
X30.886Z-0.612
X30.736Z-0.571
X30.360Z-0.537
X30.209Z-0.522
X30.134Z-0.499
X29.984
X29.759Z-0.471
X29.683
X28.556Z0.548
X28.481Z0.598
X26.753Z0.610
X26.151Z0.609
X26.001Z0.587
X24.949Z-0.012
X24.874Z-0.079
X24.724Z-0.355
X24.573Z-0.518
X23.596Z-2.365
X23.221Z-2.884
X22.845Z-3.000
X0.376
Y24.749
X22.093
X23.221Z-0.941
X23.822Z0.031
X23.972Z0.235
X24.122Z0.366
X24.348Z0.461
X25.024Z0.610
X29.383
X29.458Z0.595
X30.435Z-0.277
X30.585Z-0.471
X30.736Z-0.499
X30.961Z-0.614
X31.562Z-1.204
X31.938Z-1.697
X32.088Z-1.816
X32.915Z-2.335
X34.042Z-3.000
X63.124
Y26.972
X30.736
X30.285Z-2.173
X30.134Z-1.912
X29.308Z0.046
X29.157Z0.356
X29.007Z0.482
X28.331Z0.550
X27.128Z0.580
X26.001Z0.544
X24.498Z0.417
X24.348Z0.396
X24.198Z0.316
X23.972Z0.017
X23.070Z-1.386
X22.770Z-1.840
X22.244Z-2.801
X21.492Z-3.000
X0.376
Y29.194
X22.620
X23.521Z-2.666
X23.596Z-2.568
X23.747Z-2.470
X23.822Z-2.372
X23.972Z-2.229
X25.024Z-0.730
X25.099Z-0.665
X25.175Z-0.569
X25.325Z-0.566
X25.400Z-0.496
X25.550Z-0.476
X25.701Z-0.416
X26.678Z-0.426
X27.354Z-0.682
X28.105Z-0.990
X28.331Z-1.265
X28.481Z-1.562
X28.556Z-1.671
X29.533Z-3.000
X63.124
Y31.417
X0.376
Y33.639
X63.124
Y35.862
X0.376
Y38.084
X63.124
Y40.307
X0.376
Y42.529
X63.124
Y44.752
X0.376
Y46.974
X63.124
Y49.197
X0.376
Y51.419
X63.124
Y53.642
X0.376
Y55.864
X63.124
Y58.087
X0.376
Y60.309
X63.124
Y62.532
X0.376
Y64.754
X63.124
Y66.977
X0.376
Y69.199
X63.124
Y71.422
X0.376
Y73.644
X63.124
Y75.867
X0.376
Y78.089
X63.124
Y80.312
X0.376
Y82.534
X63.124
Y84.757
X0.376
Y86.979
X63.124
Y88.287
X63.034Y88.523
X0.376
G0Z5.080
G0X63.124Y0.302
G1Z-4.000F300.0
G1X0.376F1000.0
Y2.524
X63.124
Y4.747
X0.376
Y6.969
X63.124
Y9.192
X0.376
Y11.414
X63.124
Y13.637
X0.376
Y15.859
X63.124
Y18.082
X0.376
Y20.304
X24.573
X25.475Z-4.000
X26.602Z-2.942
X27.279Z-2.626
X27.730Z-2.386
X27.955Z-2.173
X28.180Z-1.936
X28.331Z-1.854
X29.308Z-1.518
X29.909
X30.059Z-1.647
X30.285
X30.811Z-2.089
X30.961Z-2.287
X31.036Z-2.348
X31.262Z-2.646
X31.487Z-2.683
X31.938Z-2.837
X32.088Z-2.921
X32.163Z-2.940
X32.539Z-3.198
X32.764Z-3.514
X33.741Z-4.000
X63.124
Y22.527
X35.244
X34.042Z-3.976
X33.065Z-2.487
X32.614Z-1.912
X31.788Z-0.808
X31.712Z-0.747
X31.562Z-0.701
X31.487
X31.337Z-0.660
X30.886Z-0.612
X30.736Z-0.571
X30.360Z-0.537
X30.209Z-0.522
X30.134Z-0.499
X29.984
X29.759Z-0.471
X29.683
X28.556Z0.548
X28.481Z0.598
X26.753Z0.610
X26.151Z0.609
X26.001Z0.587
X24.949Z-0.012
X24.874Z-0.079
X24.724Z-0.355
X24.573Z-0.518
X23.596Z-2.365
X23.221Z-2.884
X22.845Z-3.678
X22.394Z-4.000
X0.376
Y24.749
X20.741
X21.793Z-3.609
X22.093Z-3.016
X23.221Z-0.941
X23.822Z0.031
X23.972Z0.235
X24.122Z0.366
X24.348Z0.461
X25.024Z0.610
X29.383
X29.458Z0.595
X30.435Z-0.277
X30.585Z-0.471
X30.736Z-0.499
X30.961Z-0.614
X31.562Z-1.204
X31.938Z-1.697
X32.088Z-1.816
X32.915Z-2.335
X34.042Z-3.728
X34.343Z-4.000
X63.124
Y26.972
X32.163
X31.637Z-3.744
X31.111Z-3.286
X30.736Z-3.032
X30.285Z-2.173
X30.134Z-1.912
X29.308Z0.046
X29.157Z0.356
X29.007Z0.482
X28.331Z0.550
X27.128Z0.580
X26.001Z0.544
X24.498Z0.417
X24.348Z0.396
X24.198Z0.316
X23.972Z0.017
X23.070Z-1.386
X22.770Z-1.840
X22.244Z-2.801
X21.492Z-3.857
X20.666Z-4.000
X0.376
Y29.194
X21.943
X22.620Z-3.878
X23.521Z-2.666
X23.596Z-2.568
X23.747Z-2.470
X23.822Z-2.372
X23.972Z-2.229
X25.024Z-0.730
X25.099Z-0.665
X25.175Z-0.569
X25.325Z-0.566
X25.400Z-0.496
X25.550Z-0.476
X25.701Z-0.416
X26.678Z-0.426
X27.354Z-0.682
X28.105Z-0.990
X28.331Z-1.265
X28.481Z-1.562
X28.556Z-1.671
X29.533Z-4.000
X29.683Z-4.000
X63.124
Y31.417
X0.376
Y33.639
X63.124
Y35.862
X0.376
Y38.084
X63.124
Y40.307
X0.376
Y42.529
X63.124
Y44.752
X0.376
Y46.974
X63.124
Y49.197
X0.376
Y51.419
X63.124
Y53.642
X0.376
Y55.864
X63.124
Y58.087
X0.376
Y60.309
X63.124
Y62.532
X0.376
Y64.754
X63.124
Y66.977
X0.376
Y69.199
X63.124
Y71.422
X0.376
Y73.644
X63.124
Y75.867
X0.376
Y78.089
X63.124
Y80.312
X0.376
Y82.534
X63.124
Y84.757
X0.376
Y86.979
X63.124
Y88.287
X63.034Y88.523
X0.376
G0Z5.080
G0X63.124Y0.302
G1Z-5.000F300.0
G1X0.376F1000.0
Y2.524
X63.124
Y4.747
X0.376
Y6.969
X63.124
Y9.192
X0.376
Y11.414
X63.124
Y13.637
X0.376
Y15.859
X63.124
Y18.082
X0.376
Y20.304
X24.573
X25.475Z-4.000
X26.602Z-2.942
X27.279Z-2.626
X27.730Z-2.386
X27.955Z-2.173
X28.180Z-1.936
X28.331Z-1.854
X29.308Z-1.518
X29.909
X30.059Z-1.647
X30.285
X30.811Z-2.089
X30.961Z-2.287
X31.036Z-2.348
X31.262Z-2.646
X31.487Z-2.683
X31.938Z-2.837
X32.088Z-2.921
X32.163Z-2.940
X32.539Z-3.198
X32.764Z-3.514
X33.741Z-5.000
X63.124
Y22.527
X35.244
X34.042Z-3.976
X33.065Z-2.487
X32.614Z-1.912
X31.788Z-0.808
X31.712Z-0.747
X31.562Z-0.701
X31.487
X31.337Z-0.660
X30.886Z-0.612
X30.736Z-0.571
X30.360Z-0.537
X30.209Z-0.522
X30.134Z-0.499
X29.984
X29.759Z-0.471
X29.683
X28.556Z0.548
X28.481Z0.598
X26.753Z0.610
X26.151Z0.609
X26.001Z0.587
X24.949Z-0.012
X24.874Z-0.079
X24.724Z-0.355
X24.573Z-0.518
X23.596Z-2.365
X23.221Z-2.884
X22.845Z-3.678
X22.394Z-4.705
X21.718Z-5.000
X0.376
Y24.749
X20.741
X21.793Z-3.609
X22.093Z-3.016
X23.221Z-0.941
X23.822Z0.031
X23.972Z0.235
X24.122Z0.366
X24.348Z0.461
X25.024Z0.610
X29.383
X29.458Z0.595
X30.435Z-0.277
X30.585Z-0.471
X30.736Z-0.499
X30.961Z-0.614
X31.562Z-1.204
X31.938Z-1.697
X32.088Z-1.816
X32.915Z-2.335
X34.042Z-3.728
X34.343Z-4.261
X35.395Z-5.000
X63.124
Y26.972
X33.591
X33.366Z-4.985
X33.215Z-4.890
X33.140Z-4.796
X32.764Z-4.569
X32.689
X32.539Z-4.475
X32.389
X32.238Z-4.380
X32.163Z-4.368
X31.637Z-3.744
X31.111Z-3.286
X30.736Z-3.032
X30.285Z-2.173
X30.134Z-1.912
X29.308Z0.046
X29.157Z0.356
X29.007Z0.482
X28.331Z0.550
X27.128Z0.580
X26.001Z0.544
X24.498Z0.417
X24.348Z0.396
X24.198Z0.316
X23.972Z0.017
X23.070Z-1.386
X22.770Z-1.840
X22.244Z-2.801
X21.492Z-3.857
X20.666Z-5.000
X0.376
Y29.194
X21.567
X21.943Z-4.643
X22.620Z-3.878
X23.521Z-2.666
X23.596Z-2.568
X23.747Z-2.470
X23.822Z-2.372
X23.972Z-2.229
X25.024Z-0.730
X25.099Z-0.665
X25.175Z-0.569
X25.325Z-0.566
X25.400Z-0.496
X25.550Z-0.476
X25.701Z-0.416
X26.678Z-0.426
X27.354Z-0.682
X28.105Z-0.990
X28.331Z-1.265
X28.481Z-1.562
X28.556Z-1.671
X29.533Z-4.000
X29.683Z-4.157
X30.285Z-5.000
X63.124
Y31.417
X0.376
Y33.639
X63.124
Y35.862
X0.376
Y38.084
X63.124
Y40.307
X0.376
Y42.529
X63.124
Y44.752
X0.376
Y46.974
X63.124
Y49.197
X0.376
Y51.419
X63.124
Y53.642
X0.376
Y55.864
X63.124
Y58.087
X0.376
Y60.309
X63.124
Y62.532
X0.376
Y64.754
X63.124
Y66.977
X0.376
Y69.199
X63.124
Y71.422
X0.376
Y73.644
X63.124
Y75.867
X0.376
Y78.089
X63.124
Y80.312
X0.376
Y82.534
X63.124
Y84.757
X0.376
Y86.979
X63.124
Y88.287
X63.034Y88.523
X0.376
G0Z5.080
G0X63.124Y0.302
G1Z-6.000F300.0
G1X0.376F1000.0
Y2.524
X63.124
Y4.747
X0.376
Y6.969
X63.124
Y9.192
X0.376
Y11.414
X63.124
Y13.637
X0.376
Y15.859
X31.487
X32.614Z-5.254
X32.689Z-5.228
X35.996
X36.146Z-5.298
X37.048Z-6.000
X63.124
Y18.082
X37.574
X36.447Z-5.291
X36.372Z-5.228
X32.314
X32.238Z-5.255
X32.088Z-5.366
X31.863Z-5.301
X31.788Z-5.257
X31.712Z-5.253
X31.562Z-5.145
X31.412Z-5.137
X31.337Z-5.036
X30.209Z-5.026
X30.134Z-5.068
X30.059Z-5.141
X29.984Z-5.164
X28.556Z-6.000
X0.376
Y20.304
X23.672
X23.822Z-5.960
X24.573Z-5.015
X25.475Z-4.000
X26.602Z-2.942
X27.279Z-2.626
X27.730Z-2.386
X27.955Z-2.173
X28.180Z-1.936
X28.331Z-1.854
X29.308Z-1.518
X29.909
X30.059Z-1.647
X30.285
X30.811Z-2.089
X30.961Z-2.287
X31.036Z-2.348
X31.262Z-2.646
X31.487Z-2.683
X31.938Z-2.837
X32.088Z-2.921
X32.163Z-2.940
X32.539Z-3.198
X32.764Z-3.514
X33.741Z-5.210
X33.892Z-5.398
X34.042Z-5.535
X34.267Z-5.870
X34.343Z-5.959
X34.643Z-6.000
X63.124
Y22.527
X35.244
X34.042Z-3.976
X33.065Z-2.487
X32.614Z-1.912
X31.788Z-0.808
X31.712Z-0.747
X31.562Z-0.701
X31.487
X31.337Z-0.660
X30.886Z-0.612
X30.736Z-0.571
X30.360Z-0.537
X30.209Z-0.522
X30.134Z-0.499
X29.984
X29.759Z-0.471
X29.683
X28.556Z0.548
X28.481Z0.598
X26.753Z0.610
X26.151Z0.609
X26.001Z0.587
X24.949Z-0.012
X24.874Z-0.079
X24.724Z-0.355
X24.573Z-0.518
X23.596Z-2.365
X23.221Z-2.884
X22.845Z-3.678
X22.394Z-4.705
X21.718Z-6.000
X0.376
Y24.749
X19.989
X20.741Z-5.815
X21.793Z-3.609
X22.093Z-3.016
X23.221Z-0.941
X23.822Z0.031
X23.972Z0.235
X24.122Z0.366
X24.348Z0.461
X25.024Z0.610
X29.383
X29.458Z0.595
X30.435Z-0.277
X30.585Z-0.471
X30.736Z-0.499
X30.961Z-0.614
X31.562Z-1.204
X31.938Z-1.697
X32.088Z-1.816
X32.915Z-2.335
X34.042Z-3.728
X34.343Z-4.261
X35.395Z-6.000
X63.124
Y26.972
X34.718
X33.817Z-5.574
X33.591Z-5.268
X33.366Z-4.985
X33.215Z-4.890
X33.140Z-4.796
X32.764Z-4.569
X32.689
X32.539Z-4.475
X32.389
X32.238Z-4.380
X32.163Z-4.368
X31.637Z-3.744
X31.111Z-3.286
X30.736Z-3.032
X30.285Z-2.173
X30.134Z-1.912
X29.308Z0.046
X29.157Z0.356
X29.007Z0.482
X28.331Z0.550
X27.128Z0.580
X26.001Z0.544
X24.498Z0.417
X24.348Z0.396
X24.198Z0.316
X23.972Z0.017
X23.070Z-1.386
X22.770Z-1.840
X22.244Z-2.801
X21.492Z-3.857
X20.666Z-5.225
X20.064Z-6.000
X0.376
Y29.194
X20.816
X21.567Z-5.239
X21.943Z-4.643
X22.620Z-3.878
X23.521Z-2.666
X23.596Z-2.568
X23.747Z-2.470
X23.822Z-2.372
X23.972Z-2.229
X25.024Z-0.730
X25.099Z-0.665
X25.175Z-0.569
X25.325Z-0.566
X25.400Z-0.496
X25.550Z-0.476
X25.701Z-0.416
X26.678Z-0.426
X27.354Z-0.682
X28.105Z-0.990
X28.331Z-1.265
X28.481Z-1.562
X28.556Z-1.671
X29.533Z-4.000
X29.683Z-4.157
X30.285Z-5.029
X30.811Z-6.000
X63.124
Y31.417
X27.279
X26.602Z-5.724
X26.151Z-5.336
X26.001Z-5.286
X25.851Z-5.155
X25.776Z-5.115
X25.325
X24.348Z-5.540
X24.198Z-5.664
X24.047Z-5.751
X23.822Z-5.993
X23.747Z-6.000
X0.376
Y33.639
X63.124
Y35.862
X0.376
Y38.084
X63.124
Y40.307
X0.376
Y42.529
X63.124
Y44.752
X0.376
Y46.974
X63.124
Y49.197
X0.376
Y51.419
X63.124
Y53.642
X0.376
Y55.864
X63.124
Y58.087
X0.376
Y60.309
X63.124
Y62.532
X0.376
Y64.754
X63.124
Y66.977
X0.376
Y69.199
X63.124
Y71.422
X0.376
Y73.644
X63.124
Y75.867
X0.376
Y78.089
X63.124
Y80.312
X0.376
Y82.534
X63.124
Y84.757
X0.376
Y86.979
X63.124
Y88.287
X63.034Y88.523
X0.376
G0Z5.080
G0X63.124Y0.302
G1Z-7.000F300.0
G1X0.376F1000.0
Y2.524
X63.124
Y4.747
X0.376
Y6.969
X63.124
Y9.192
X0.376
Y11.414
X63.124
Y13.637
X36.822
X36.672Z-6.915
X36.447Z-6.757
X36.372
X36.221Z-6.650
X36.146
X35.996Z-6.545
X35.094
X34.944Z-6.631
X34.793Z-6.686
X34.718Z-6.737
X34.568Z-6.792
X33.591Z-7.000
X0.376
Y15.859
X30.360
X31.412Z-6.216
X31.487Z-6.099
X32.614Z-5.254
X32.689Z-5.228
X35.996
X36.146Z-5.298
X37.048Z-6.467
X37.198Z-6.484
X37.724
X37.799Z-6.535
X38.776Z-7.000
X63.124
Y18.082
X38.476
X37.574Z-6.765
X36.447Z-5.291
X36.372Z-5.228
X32.314
X32.238Z-5.255
X32.088Z-5.366
X31.863Z-5.301
X31.788Z-5.257
X31.712Z-5.253
X31.562Z-5.145
X31.412Z-5.137
X31.337Z-5.036
X30.209Z-5.026
X30.134Z-5.068
X30.059Z-5.141
X29.984Z-5.164
X28.556Z-6.556
X27.880Z-7.000
X0.376
Y20.304
X23.146
X23.521Z-6.425
X23.672Z-6.213
X23.822Z-5.960
X24.573Z-5.015
X25.475Z-4.000
X26.602Z-2.942
X27.279Z-2.626
X27.730Z-2.386
X27.955Z-2.173
X28.180Z-1.936
X28.331Z-1.854
X29.308Z-1.518
X29.909
X30.059Z-1.647
X30.285
X30.811Z-2.089
X30.961Z-2.287
X31.036Z-2.348
X31.262Z-2.646
X31.487Z-2.683
X31.938Z-2.837
X32.088Z-2.921
X32.163Z-2.940
X32.539Z-3.198
X32.764Z-3.514
X33.741Z-5.210
X33.892Z-5.398
X34.042Z-5.535
X34.267Z-5.870
X34.343Z-5.959
X34.643Z-6.146
X35.545Z-6.962
X35.846Z-7.000
X63.124
Y22.527
X37.649
X35.620Z-6.842
X35.244Z-6.202
X34.042Z-3.976
X33.065Z-2.487
X32.614Z-1.912
X31.788Z-0.808
X31.712Z-0.747
X31.562Z-0.701
X31.487
X31.337Z-0.660
X30.886Z-0.612
X30.736Z-0.571
X30.360Z-0.537
X30.209Z-0.522
X30.134Z-0.499
X29.984
X29.759Z-0.471
X29.683
X28.556Z0.548
X28.481Z0.598
X26.753Z0.610
X26.151Z0.609
X26.001Z0.587
X24.949Z-0.012
X24.874Z-0.079
X24.724Z-0.355
X24.573Z-0.518
X23.596Z-2.365
X23.221Z-2.884
X22.845Z-3.678
X22.394Z-4.705
X21.718Z-6.029
X21.267Z-7.000
X0.376
Y24.749
X19.989
X20.741Z-5.815
X21.793Z-3.609
X22.093Z-3.016
X23.221Z-0.941
X23.822Z0.031
X23.972Z0.235
X24.122Z0.366
X24.348Z0.461
X25.024Z0.610
X29.383
X29.458Z0.595
X30.435Z-0.277
X30.585Z-0.471
X30.736Z-0.499
X30.961Z-0.614
X31.562Z-1.204
X31.938Z-1.697
X32.088Z-1.816
X32.915Z-2.335
X34.042Z-3.728
X34.343Z-4.261
X35.395Z-6.239
X36.597Z-7.000
X63.124
Y26.972
X35.094
X34.718Z-6.847
X33.817Z-5.574
X33.591Z-5.268
X33.366Z-4.985
X33.215Z-4.890
X33.140Z-4.796
X32.764Z-4.569
X32.689
X32.539Z-4.475
X32.389
X32.238Z-4.380
X32.163Z-4.368
X31.637Z-3.744
X31.111Z-3.286
X30.736Z-3.032
X30.285Z-2.173
X30.134Z-1.912
X29.308Z0.046
X29.157Z0.356
X29.007Z0.482
X28.331Z0.550
X27.128Z0.580
X26.001Z0.544
X24.498Z0.417
X24.348Z0.396
X24.198Z0.316
X23.972Z0.017
X23.070Z-1.386
X22.770Z-1.840
X22.244Z-2.801
X21.492Z-3.857
X20.666Z-5.225
X20.064Z-6.367
X18.036Z-7.000
X0.376
Y29.194
X20.440
X20.816Z-6.401
X21.567Z-5.239
X21.943Z-4.643
X22.620Z-3.878
X23.521Z-2.666
X23.596Z-2.568
X23.747Z-2.470
X23.822Z-2.372
X23.972Z-2.229
X25.024Z-0.730
X25.099Z-0.665
X25.175Z-0.569
X25.325Z-0.566
X25.400Z-0.496
X25.550Z-0.476
X25.701Z-0.416
X26.678Z-0.426
X27.354Z-0.682
X28.105Z-0.990
X28.331Z-1.265
X28.481Z-1.562
X28.556Z-1.671
X29.533Z-4.000
X29.683Z-4.157
X30.285Z-5.029
X30.811Z-6.263
X31.487Z-7.000
X63.124
Y31.417
X28.331
X27.805Z-6.817
X27.279Z-6.434
X26.602Z-5.724
X26.151Z-5.336
X26.001Z-5.286
X25.851Z-5.155
X25.776Z-5.115
X25.325
X24.348Z-5.540
X24.198Z-5.664
X24.047Z-5.751
X23.822Z-5.993
X23.747Z-6.050
X23.521
X23.446Z-6.106
X23.371Z-6.130
X23.146
X23.070Z-6.186
X22.995Z-6.210
X22.920
X22.845Z-6.266
X22.770Z-6.290
X22.695Z-6.346
X22.620Z-6.370
X22.469Z-6.506
X22.394Z-6.586
X22.319Z-6.609
X22.169Z-6.745
X22.018Z-6.881
X20.891Z-7.000
X0.376
Y33.639
X14.504
X14.954Z-6.970
X15.631Z-6.380
X15.706Z-6.340
X16.007Z-6.327
X19.839
X19.914Z-6.367
X20.064Z-6.615
X21.041Z-7.000
X63.124
Y35.862
X19.989
X19.764Z-6.670
X19.689Z-6.621
X19.614Z-6.523
X19.538Z-6.474
X19.463Z-6.376
X19.388Z-6.327
X16.232
X16.157Z-6.340
X15.856Z-6.585
X15.030Z-7.000
X0.376
Y38.084
X63.124
Y40.307
X0.376
Y42.529
X63.124
Y44.752
X0.376
Y46.974
X63.124
Y49.197
X0.376
Y51.419
X63.124
Y53.642
X0.376
Y55.864
X63.124
Y58.087
X0.376
Y60.309
X63.124
Y62.532
X0.376
Y64.754
X63.124
Y66.977
X0.376
Y69.199
X63.124
Y71.422
X0.376
Y73.644
X63.124
Y75.867
X0.376
Y78.089
X63.124
Y80.312
X0.376
Y82.534
X63.124
Y84.757
X0.376
Y86.979
X63.124
Y88.287
X63.034Y88.523
X0.376
G0Z5.080
G0X63.124Y0.302
G1Z-8.000F300.0
G1X0.376F1000.0
Y2.524
X63.124
Y4.747
X0.376
Y6.969
X63.124
Y9.192
X0.376
Y11.414
X63.124
Y13.637
X39.904
X38.851Z-7.534
X38.776Z-7.512
X37.273
X37.198Z-7.462
X36.898Z-7.128
X36.822Z-7.077
X36.672Z-6.915
X36.447Z-6.757
X36.372
X36.221Z-6.650
X36.146
X35.996Z-6.545
X35.094
X34.944Z-6.631
X34.793Z-6.686
X34.718Z-6.737
X34.568Z-6.792
X33.591Z-7.463
X33.441Z-7.637
X33.215Z-7.955
X32.163Z-8.000
X0.376
Y15.859
X30.360
X31.412Z-6.216
X31.487Z-6.099
X32.614Z-5.254
X32.689Z-5.228
X35.996
X36.146Z-5.298
X37.048Z-6.467
X37.198Z-6.484
X37.724
X37.799Z-6.535
X38.776Z-7.621
X39.453Z-7.973
X39.528Z-8.000
X63.124
Y18.082
X38.476
X37.574Z-6.765
X36.447Z-5.291
X36.372Z-5.228
X32.314
X32.238Z-5.255
X32.088Z-5.366
X31.863Z-5.301
X31.788Z-5.257
X31.712Z-5.253
X31.562Z-5.145
X31.412Z-5.137
X31.337Z-5.036
X30.209Z-5.026
X30.134Z-5.068
X30.059Z-5.141
X29.984Z-5.164
X28.556Z-6.556
X27.880Z-7.179
X27.805Z-7.224
X26.828
X26.753Z-7.236
X26.602Z-7.348
X26.452Z-7.414
X25.400Z-8.000
X0.376
Y20.304
X22.018
X22.394Z-7.839
X22.845Z-7.414
X23.146Z-7.142
X23.521Z-6.425
X23.672Z-6.213
X23.822Z-5.960
X24.573Z-5.015
X25.475Z-4.000
X26.602Z-2.942
X27.279Z-2.626
X27.730Z-2.386
X27.955Z-2.173
X28.180Z-1.936
X28.331Z-1.854
X29.308Z-1.518
X29.909
X30.059Z-1.647
X30.285
X30.811Z-2.089
X30.961Z-2.287
X31.036Z-2.348
X31.262Z-2.646
X31.487Z-2.683
X31.938Z-2.837
X32.088Z-2.921
X32.163Z-2.940
X32.539Z-3.198
X32.764Z-3.514
X33.741Z-5.210
X33.892Z-5.398
X34.042Z-5.535
X34.267Z-5.870
X34.343Z-5.959
X34.643Z-6.146
X35.545Z-6.962
X35.846Z-7.270
X37.273Z-8.000
X63.124
Y22.527
X37.649
X35.620Z-6.842
X35.244Z-6.202
X34.042Z-3.976
X33.065Z-2.487
X32.614Z-1.912
X31.788Z-0.808
X31.712Z-0.747
X31.562Z-0.701
X31.487
X31.337Z-0.660
X30.886Z-0.612
X30.736Z-0.571
X30.360Z-0.537
X30.209Z-0.522
X30.134Z-0.499
X29.984
X29.759Z-0.471
X29.683
X28.556Z0.548
X28.481Z0.598
X26.753Z0.610
X26.151Z0.609
X26.001Z0.587
X24.949Z-0.012
X24.874Z-0.079
X24.724Z-0.355
X24.573Z-0.518
X23.596Z-2.365
X23.221Z-2.884
X22.845Z-3.678
X22.394Z-4.705
X21.718Z-6.029
X21.267Z-7.035
X20.741Z-8.000
X0.376
Y24.749
X19.463
X19.989Z-7.509
X20.741Z-5.815
X21.793Z-3.609
X22.093Z-3.016
X23.221Z-0.941
X23.822Z0.031
X23.972Z0.235
X24.122Z0.366
X24.348Z0.461
X25.024Z0.610
X29.383
X29.458Z0.595
X30.435Z-0.277
X30.585Z-0.471
X30.736Z-0.499
X30.961Z-0.614
X31.562Z-1.204
X31.938Z-1.697
X32.088Z-1.816
X32.915Z-2.335
X34.042Z-3.728
X34.343Z-4.261
X35.395Z-6.239
X36.597Z-8.000
X63.124
Y26.972
X35.996
X35.169Z-7.581
X35.094Z-7.414
X34.718Z-6.847
X33.817Z-5.574
X33.591Z-5.268
X33.366Z-4.985
X33.215Z-4.890
X33.140Z-4.796
X32.764Z-4.569
X32.689
X32.539Z-4.475
X32.389
X32.238Z-4.380
X32.163Z-4.368
X31.637Z-3.744
X31.111Z-3.286
X30.736Z-3.032
X30.285Z-2.173
X30.134Z-1.912
X29.308Z0.046
X29.157Z0.356
X29.007Z0.482
X28.331Z0.550
X27.128Z0.580
X26.001Z0.544
X24.498Z0.417
X24.348Z0.396
X24.198Z0.316
X23.972Z0.017
X23.070Z-1.386
X22.770Z-1.840
X22.244Z-2.801
X21.492Z-3.857
X20.666Z-5.225
X20.064Z-6.367
X18.036Z-8.000
X0.376
Y29.194
X19.538
X19.689Z-7.872
X20.290Z-7.244
X20.440Z-7.099
X20.816Z-6.401
X21.567Z-5.239
X21.943Z-4.643
X22.620Z-3.878
X23.521Z-2.666
X23.596Z-2.568
X23.747Z-2.470
X23.822Z-2.372
X23.972Z-2.229
X25.024Z-0.730
X25.099Z-0.665
X25.175Z-0.569
X25.325Z-0.566
X25.400Z-0.496
X25.550Z-0.476
X25.701Z-0.416
X26.678Z-0.426
X27.354Z-0.682
X28.105Z-0.990
X28.331Z-1.265
X28.481Z-1.562
X28.556Z-1.671
X29.533Z-4.000
X29.683Z-4.157
X30.285Z-5.029
X30.811Z-6.263
X31.487Z-7.476
X31.712Z-7.833
X31.788Z-7.858
X32.389
X32.464Z-7.884
X32.539Z-7.968
X32.689Z-8.000
X63.124
Y31.417
X29.458
X29.383Z-7.931
X29.308Z-7.823
X29.233Z-7.749
X29.157Z-7.726
X29.007Z-7.567
X28.782Z-7.499
X28.707Z-7.460
X28.631Z-7.385
X28.406Z-7.317
X28.331Z-7.279
X27.805Z-6.817
X27.279Z-6.434
X26.602Z-5.724
X26.151Z-5.336
X26.001Z-5.286
X25.851Z-5.155
X25.776Z-5.115
X25.325
X24.348Z-5.540
X24.198Z-5.664
X24.047Z-5.751
X23.822Z-5.993
X23.747Z-6.050
X23.521
X23.446Z-6.106
X23.371Z-6.130
X23.146
X23.070Z-6.186
X22.995Z-6.210
X22.920
X22.845Z-6.266
X22.770Z-6.290
X22.695Z-6.346
X22.620Z-6.370
X22.469Z-6.506
X22.394Z-6.586
X22.319Z-6.609
X22.169Z-6.745
X22.018Z-6.881
X20.891Z-7.234
X19.839Z-8.000
X0.376
Y33.639
X13.451
X14.504Z-7.344
X14.954Z-6.970
X15.631Z-6.380
X15.706Z-6.340
X16.007Z-6.327
X19.839
X19.914Z-6.367
X20.064Z-6.615
X21.041Z-8.000
X63.124
Y35.862
X21.041
X20.215Z-7.445
X19.989Z-7.021
X19.764Z-6.670
X19.689Z-6.621
X19.614Z-6.523
X19.538Z-6.474
X19.463Z-6.376
X19.388Z-6.327
X16.232
X16.157Z-6.340
X15.856Z-6.585
X15.030Z-7.292
X14.654Z-7.519
X13.902Z-8.000
X0.376
Y38.084
X16.457
X17.359Z-7.741
X18.186Z-7.741
X18.336Z-7.929
X18.486Z-7.929
X19.012Z-8.000
X63.124
Y40.307
X0.376
Y42.529
X63.124
Y44.752
X0.376
Y46.974
X63.124
Y49.197
X0.376
Y51.419
X63.124
Y53.642
X0.376
Y55.864
X63.124
Y58.087
X0.376
Y60.309
X63.124
Y62.532
X0.376
Y64.754
X63.124
Y66.977
X0.376
Y69.199
X63.124
Y71.422
X0.376
Y73.644
X63.124
Y75.867
X0.376
Y78.089
X63.124
Y80.312
X0.376
Y82.534
X63.124
Y84.757
X0.376
Y86.979
X63.124
Y88.287
X63.034Y88.523
X0.376
G0Z5.080
G0X63.124Y0.302
G1Z-9.000F300.0
G1X0.376F1000.0
Y2.524
X63.124
Y4.747
X0.376
Y6.969
X63.124
Y9.192
X0.376
Y11.414
X35.620
X36.597Z-8.571
X36.672
X36.822Z-8.440
X36.898Z-8.419
X38.100
X38.250Z-8.485
X38.401Z-8.530
X38.476Z-8.569
X38.626Z-8.576
X38.927Z-8.727
X39.002Z-8.744
X39.227Z-8.884
X39.302
X39.378Z-8.951
X39.528Z-9.000
X63.124
Y13.637
X40.730
X40.054Z-8.270
X39.904Z-8.075
X38.851Z-7.534
X38.776Z-7.512
X37.273
X37.198Z-7.462
X36.898Z-7.128
X36.822Z-7.077
X36.672Z-6.915
X36.447Z-6.757
X36.372
X36.221Z-6.650
X36.146
X35.996Z-6.545
X35.094
X34.944Z-6.631
X34.793Z-6.686
X34.718Z-6.737
X34.568Z-6.792
X33.591Z-7.463
X33.441Z-7.637
X33.215Z-7.955
X32.163Z-9.000
X0.376
Y15.859
X29.533
X30.360Z-8.428
X31.412Z-6.216
X31.487Z-6.099
X32.614Z-5.254
X32.689Z-5.228
X35.996
X36.146Z-5.298
X37.048Z-6.467
X37.198Z-6.484
X37.724
X37.799Z-6.535
X38.776Z-7.621
X39.453Z-7.973
X39.528Z-8.038
X40.956Z-9.000
X63.124
Y18.082
X39.678
X38.476Z-8.603
X37.574Z-6.765
X36.447Z-5.291
X36.372Z-5.228
X32.314
X32.238Z-5.255
X32.088Z-5.366
X31.863Z-5.301
X31.788Z-5.257
X31.712Z-5.253
X31.562Z-5.145
X31.412Z-5.137
X31.337Z-5.036
X30.209Z-5.026
X30.134Z-5.068
X30.059Z-5.141
X29.984Z-5.164
X28.556Z-6.556
X27.880Z-7.179
X27.805Z-7.224
X26.828
X26.753Z-7.236
X26.602Z-7.348
X26.452Z-7.414
X25.400Z-8.048
X24.949Z-8.417
X24.874Z-8.495
X23.747Z-9.000
X0.376
Y20.304
X20.966
X21.868Z-8.706
X22.018Z-8.380
X22.394Z-7.839
X22.845Z-7.414
X23.146Z-7.142
X23.521Z-6.425
X23.672Z-6.213
X23.822Z-5.960
X24.573Z-5.015
X25.475Z-4.000
X26.602Z-2.942
X27.279Z-2.626
X27.730Z-2.386
X27.955Z-2.173
X28.180Z-1.936
X28.331Z-1.854
X29.308Z-1.518
X29.909
X30.059Z-1.647
X30.285
X30.811Z-2.089
X30.961Z-2.287
X31.036Z-2.348
X31.262Z-2.646
X31.487Z-2.683
X31.938Z-2.837
X32.088Z-2.921
X32.163Z-2.940
X32.539Z-3.198
X32.764Z-3.514
X33.741Z-5.210
X33.892Z-5.398
X34.042Z-5.535
X34.267Z-5.870
X34.343Z-5.959
X34.643Z-6.146
X35.545Z-6.962
X35.846Z-7.270
X37.273Z-9.000
X63.124
Y22.527
X37.649
X35.620Z-6.842
X35.244Z-6.202
X34.042Z-3.976
X33.065Z-2.487
X32.614Z-1.912
X31.788Z-0.808
X31.712Z-0.747
X31.562Z-0.701
X31.487
X31.337Z-0.660
X30.886Z-0.612
X30.736Z-0.571
X30.360Z-0.537
X30.209Z-0.522
X30.134Z-0.499
X29.984
X29.759Z-0.471
X29.683
X28.556Z0.548
X28.481Z0.598
X26.753Z0.610
X26.151Z0.609
X26.001Z0.587
X24.949Z-0.012
X24.874Z-0.079
X24.724Z-0.355
X24.573Z-0.518
X23.596Z-2.365
X23.221Z-2.884
X22.845Z-3.678
X22.394Z-4.705
X21.718Z-6.029
X21.267Z-7.035
X20.741Z-8.446
X19.989Z-9.000
X0.376
Y24.749
X19.163
X19.463Z-8.679
X19.989Z-7.509
X20.741Z-5.815
X21.793Z-3.609
X22.093Z-3.016
X23.221Z-0.941
X23.822Z0.031
X23.972Z0.235
X24.122Z0.366
X24.348Z0.461
X25.024Z0.610
X29.383
X29.458Z0.595
X30.435Z-0.277
X30.585Z-0.471
X30.736Z-0.499
X30.961Z-0.614
X31.562Z-1.204
X31.938Z-1.697
X32.088Z-1.816
X32.915Z-2.335
X34.042Z-3.728
X34.343Z-4.261
X35.395Z-6.239
X36.597Z-8.370
X37.649Z-9.000
X63.124
Y26.972
X35.996
X35.169Z-7.581
X35.094Z-7.414
X34.718Z-6.847
X33.817Z-5.574
X33.591Z-5.268
X33.366Z-4.985
X33.215Z-4.890
X33.140Z-4.796
X32.764Z-4.569
X32.689
X32.539Z-4.475
X32.389
X32.238Z-4.380
X32.163Z-4.368
X31.637Z-3.744
X31.111Z-3.286
X30.736Z-3.032
X30.285Z-2.173
X30.134Z-1.912
X29.308Z0.046
X29.157Z0.356
X29.007Z0.482
X28.331Z0.550
X27.128Z0.580
X26.001Z0.544
X24.498Z0.417
X24.348Z0.396
X24.198Z0.316
X23.972Z0.017
X23.070Z-1.386
X22.770Z-1.840
X22.244Z-2.801
X21.492Z-3.857
X20.666Z-5.225
X20.064Z-6.367
X18.036Z-9.000
X0.376
Y29.194
X18.336
X19.463Z-8.196
X19.538Z-8.107
X19.689Z-7.872
X20.290Z-7.244
X20.440Z-7.099
X20.816Z-6.401
X21.567Z-5.239
X21.943Z-4.643
X22.620Z-3.878
X23.521Z-2.666
X23.596Z-2.568
X23.747Z-2.470
X23.822Z-2.372
X23.972Z-2.229
X25.024Z-0.730
X25.099Z-0.665
X25.175Z-0.569
X25.325Z-0.566
X25.400Z-0.496
X25.550Z-0.476
X25.701Z-0.416
X26.678Z-0.426
X27.354Z-0.682
X28.105Z-0.990
X28.331Z-1.265
X28.481Z-1.562
X28.556Z-1.671
X29.533Z-4.000
X29.683Z-4.157
X30.285Z-5.029
X30.811Z-6.263
X31.487Z-7.476
X31.712Z-7.833
X31.788Z-7.858
X32.389
X32.464Z-7.884
X32.539Z-7.968
X32.689Z-8.015
X32.840Z-8.122
X32.915Z-8.132
X34.042Z-8.819
X34.117Z-8.900
X34.192Z-8.929
X34.343Z-9.000
X63.124
Y31.417
X30.736
X29.984Z-8.842
X29.608Z-8.187
X29.533Z-8.112
X29.458Z-8.005
X29.383Z-7.931
X29.308Z-7.823
X29.233Z-7.749
X29.157Z-7.726
X29.007Z-7.567
X28.782Z-7.499
X28.707Z-7.460
X28.631Z-7.385
X28.406Z-7.317
X28.331Z-7.279
X27.805Z-6.817
X27.279Z-6.434
X26.602Z-5.724
X26.151Z-5.336
X26.001Z-5.286
X25.851Z-5.155
X25.776Z-5.115
X25.325
X24.348Z-5.540
X24.198Z-5.664
X24.047Z-5.751
X23.822Z-5.993
X23.747Z-6.050
X23.521
X23.446Z-6.106
X23.371Z-6.130
X23.146
X23.070Z-6.186
X22.995Z-6.210
X22.920
X22.845Z-6.266
X22.770Z-6.290
X22.695Z-6.346
X22.620Z-6.370
X22.469Z-6.506
X22.394Z-6.586
X22.319Z-6.609
X22.169Z-6.745
X22.018Z-6.881
X20.891Z-7.234
X19.839Z-8.270
X19.689Z-8.414
X19.388Z-8.543
X18.862Z-8.872
X18.787Z-8.931
X18.712Z-8.907
X18.637Z-8.801
X18.562
X18.411Z-8.577
X18.261
X18.111Z-8.354
X17.509
X17.434Z-8.367
X17.209Z-8.564
X17.134Z-8.590
X17.059Z-8.656
X16.307Z-8.653
X16.157Z-8.793
X16.007Z-8.800
X15.856Z-8.940
X15.781Z-8.946
X15.330Z-9.000
X0.376
Y33.639
X10.972
X12.099Z-8.528
X12.174Z-8.430
X12.399Z-8.401
X13.376
X13.451Z-8.370
X14.504Z-7.344
X14.954Z-6.970
X15.631Z-6.380
X15.706Z-6.340
X16.007Z-6.327
X19.839
X19.914Z-6.367
X20.064Z-6.615
X21.041Z-8.453
X21.267Z-8.833
X21.342Z-8.850
X22.169Z-8.601
X22.995Z-8.610
X24.122Z-8.849
X24.273Z-8.953
X24.423Z-8.996
X24.949Z-9.000
X63.124
Y35.862
X21.192
X21.041Z-8.826
X20.215Z-7.445
X19.989Z-7.021
X19.764Z-6.670
X19.689Z-6.621
X19.614Z-6.523
X19.538Z-6.474
X19.463Z-6.376
X19.388Z-6.327
X16.232
X16.157Z-6.340
X15.856Z-6.585
X15.030Z-7.292
X14.654Z-7.519
X13.902Z-8.268
X13.827Z-8.359
X13.752Z-8.401
X12.775
X12.700Z-8.415
X12.550Z-8.557
X12.249Z-8.918
X11.573Z-9.000
X0.376
Y38.084
X15.030
X15.931Z-8.567
X16.457Z-8.249
X17.359Z-7.741
X18.186Z-7.741
X18.336Z-7.929
X18.486Z-7.929
X19.012Z-8.587
X19.614Z-9.000
X63.124
Y40.307
X0.376
Y42.529
X63.124
Y44.752
X0.376
Y46.974
X63.124
Y49.197
X0.376
Y51.419
X63.124
Y53.642
X0.376
Y55.864
X63.124
Y58.087
X0.376
Y60.309
X63.124
Y62.532
X0.376
Y64.754
X63.124
Y66.977
X0.376
Y69.199
X63.124
Y71.422
X0.376
Y73.644
X63.124
Y75.867
X0.376
Y78.089
X63.124
Y80.312
X0.376
Y82.534
X63.124
Y84.757
X0.376
Y86.979
X63.124
Y88.287
X63.034Y88.523
X0.376
G0Z5.080
G0X63.124Y0.302
G1Z-10.000F300.0
G1X0.376F1000.0
Y2.524
X63.124
Y4.747
X0.376
Y6.969
X63.124
Y9.192
X0.376
Y11.414
X34.944
X35.395Z-9.706
X35.620Z-9.493
X36.597Z-8.571
X36.672
X36.822Z-8.440
X36.898Z-8.419
X38.100
X38.250Z-8.485
X38.401Z-8.530
X38.476Z-8.569
X38.626Z-8.576
X38.927Z-8.727
X39.002Z-8.744
X39.227Z-8.884
X39.302
X39.378Z-8.951
X39.528Z-9.008
X40.580Z-9.547
X41.857Z-10.000
X63.124
Y13.637
X42.233
X41.181Z-9.571
X40.730Z-9.340
X40.054Z-8.270
X39.904Z-8.075
X38.851Z-7.534
X38.776Z-7.512
X37.273
X37.198Z-7.462
X36.898Z-7.128
X36.822Z-7.077
X36.672Z-6.915
X36.447Z-6.757
X36.372
X36.221Z-6.650
X36.146
X35.996Z-6.545
X35.094
X34.944Z-6.631
X34.793Z-6.686
X34.718Z-6.737
X34.568Z-6.792
X33.591Z-7.463
X33.441Z-7.637
X33.215Z-7.955
X32.163Z-9.116
X32.013Z-9.349
X31.863Z-9.551
X31.111Z-10.000
X0.376
Y15.859
X28.331
X28.857Z-9.998
X29.458Z-9.776
X29.533Z-9.725
X30.360Z-8.428
X31.412Z-6.216
X31.487Z-6.099
X32.614Z-5.254
X32.689Z-5.228
X35.996
X36.146Z-5.298
X37.048Z-6.467
X37.198Z-6.484
X37.724
X37.799Z-6.535
X38.776Z-7.621
X39.453Z-7.973
X39.528Z-8.038
X40.956Z-10.000
X63.124
Y18.082
X39.678
X38.476Z-8.603
X37.574Z-6.765
X36.447Z-5.291
X36.372Z-5.228
X32.314
X32.238Z-5.255
X32.088Z-5.366
X31.863Z-5.301
X31.788Z-5.257
X31.712Z-5.253
X31.562Z-5.145
X31.412Z-5.137
X31.337Z-5.036
X30.209Z-5.026
X30.134Z-5.068
X30.059Z-5.141
X29.984Z-5.164
X28.556Z-6.556
X27.880Z-7.179
X27.805Z-7.224
X26.828
X26.753Z-7.236
X26.602Z-7.348
X26.452Z-7.414
X25.400Z-8.048
X24.949Z-8.417
X24.874Z-8.495
X23.747Z-10.000
X0.376
Y20.304
X20.966
X21.868Z-8.706
X22.018Z-8.380
X22.394Z-7.839
X22.845Z-7.414
X23.146Z-7.142
X23.521Z-6.425
X23.672Z-6.213
X23.822Z-5.960
X24.573Z-5.015
X25.475Z-4.000
X26.602Z-2.942
X27.279Z-2.626
X27.730Z-2.386
X27.955Z-2.173
X28.180Z-1.936
X28.331Z-1.854
X29.308Z-1.518
X29.909
X30.059Z-1.647
X30.285
X30.811Z-2.089
X30.961Z-2.287
X31.036Z-2.348
X31.262Z-2.646
X31.487Z-2.683
X31.938Z-2.837
X32.088Z-2.921
X32.163Z-2.940
X32.539Z-3.198
X32.764Z-3.514
X33.741Z-5.210
X33.892Z-5.398
X34.042Z-5.535
X34.267Z-5.870
X34.343Z-5.959
X34.643Z-6.146
X35.545Z-6.962
X35.846Z-7.270
X37.273Z-9.195
X38.250Z-10.000
X63.124
Y22.527
X37.649
X35.620Z-6.842
X35.244Z-6.202
X34.042Z-3.976
X33.065Z-2.487
X32.614Z-1.912
X31.788Z-0.808
X31.712Z-0.747
X31.562Z-0.701
X31.487
X31.337Z-0.660
X30.886Z-0.612
X30.736Z-0.571
X30.360Z-0.537
X30.209Z-0.522
X30.134Z-0.499
X29.984
X29.759Z-0.471
X29.683
X28.556Z0.548
X28.481Z0.598
X26.753Z0.610
X26.151Z0.609
X26.001Z0.587
X24.949Z-0.012
X24.874Z-0.079
X24.724Z-0.355
X24.573Z-0.518
X23.596Z-2.365
X23.221Z-2.884
X22.845Z-3.678
X22.394Z-4.705
X21.718Z-6.029
X21.267Z-7.035
X20.741Z-8.446
X19.989Z-9.608
X19.689Z-10.000
X0.376
Y24.749
X18.111
X19.163Z-9.152
X19.463Z-8.679
X19.989Z-7.509
X20.741Z-5.815
X21.793Z-3.609
X22.093Z-3.016
X23.221Z-0.941
X23.822Z0.031
X23.972Z0.235
X24.122Z0.366
X24.348Z0.461
X25.024Z0.610
X29.383
X29.458Z0.595
X30.435Z-0.277
X30.585Z-0.471
X30.736Z-0.499
X30.961Z-0.614
X31.562Z-1.204
X31.938Z-1.697
X32.088Z-1.816
X32.915Z-2.335
X34.042Z-3.728
X34.343Z-4.261
X35.395Z-6.239
X36.597Z-8.370
X37.649Z-10.000
X63.124
Y26.972
X36.372
X35.996Z-9.554
X35.169Z-7.581
X35.094Z-7.414
X34.718Z-6.847
X33.817Z-5.574
X33.591Z-5.268
X33.366Z-4.985
X33.215Z-4.890
X33.140Z-4.796
X32.764Z-4.569
X32.689
X32.539Z-4.475
X32.389
X32.238Z-4.380
X32.163Z-4.368
X31.637Z-3.744
X31.111Z-3.286
X30.736Z-3.032
X30.285Z-2.173
X30.134Z-1.912
X29.308Z0.046
X29.157Z0.356
X29.007Z0.482
X28.331Z0.550
X27.128Z0.580
X26.001Z0.544
X24.498Z0.417
X24.348Z0.396
X24.198Z0.316
X23.972Z0.017
X23.070Z-1.386
X22.770Z-1.840
X22.244Z-2.801
X21.492Z-3.857
X20.666Z-5.225
X20.064Z-6.367
X18.036Z-10.000
X0.376
Y29.194
X18.336
X19.463Z-8.196
X19.538Z-8.107
X19.689Z-7.872
X20.290Z-7.244
X20.440Z-7.099
X20.816Z-6.401
X21.567Z-5.239
X21.943Z-4.643
X22.620Z-3.878
X23.521Z-2.666
X23.596Z-2.568
X23.747Z-2.470
X23.822Z-2.372
X23.972Z-2.229
X25.024Z-0.730
X25.099Z-0.665
X25.175Z-0.569
X25.325Z-0.566
X25.400Z-0.496
X25.550Z-0.476
X25.701Z-0.416
X26.678Z-0.426
X27.354Z-0.682
X28.105Z-0.990
X28.331Z-1.265
X28.481Z-1.562
X28.556Z-1.671
X29.533Z-4.000
X29.683Z-4.157
X30.285Z-5.029
X30.811Z-6.263
X31.487Z-7.476
X31.712Z-7.833
X31.788Z-7.858
X32.389
X32.464Z-7.884
X32.539Z-7.968
X32.689Z-8.015
X32.840Z-8.122
X32.915Z-8.132
X34.042Z-8.819
X34.117Z-8.900
X34.192Z-8.929
X34.343Z-9.109
X34.418Z-9.124
X35.019Z-9.873
X35.470Z-10.000
X63.124
Y31.417
X31.262
X31.036Z-9.777
X30.886Z-9.644
X30.736Z-9.428
X29.984Z-8.842
X29.608Z-8.187
X29.533Z-8.112
X29.458Z-8.005
X29.383Z-7.931
X29.308Z-7.823
X29.233Z-7.749
X29.157Z-7.726
X29.007Z-7.567
X28.782Z-7.499
X28.707Z-7.460
X28.631Z-7.385
X28.406Z-7.317
X28.331Z-7.279
X27.805Z-6.817
X27.279Z-6.434
X26.602Z-5.724
X26.151Z-5.336
X26.001Z-5.286
X25.851Z-5.155
X25.776Z-5.115
X25.325
X24.348Z-5.540
X24.198Z-5.664
X24.047Z-5.751
X23.822Z-5.993
X23.747Z-6.050
X23.521
X23.446Z-6.106
X23.371Z-6.130
X23.146
X23.070Z-6.186
X22.995Z-6.210
X22.920
X22.845Z-6.266
X22.770Z-6.290
X22.695Z-6.346
X22.620Z-6.370
X22.469Z-6.506
X22.394Z-6.586
X22.319Z-6.609
X22.169Z-6.745
X22.018Z-6.881
X20.891Z-7.234
X19.839Z-8.270
X19.689Z-8.414
X19.388Z-8.543
X18.862Z-8.872
X18.787Z-8.931
X18.712Z-8.907
X18.637Z-8.801
X18.562
X18.411Z-8.577
X18.261
X18.111Z-8.354
X17.509
X17.434Z-8.367
X17.209Z-8.564
X17.134Z-8.590
X17.059Z-8.656
X16.307Z-8.653
X16.157Z-8.793
X16.007Z-8.800
X15.856Z-8.940
X15.781Z-8.946
X15.330Z-9.378
X15.105Z-9.526
X15.030Z-9.551
X14.579Z-9.552
X14.504Z-9.590
X14.428Z-9.677
X14.353
X14.278Z-9.702
X14.203Z-9.800
X14.128Z-9.821
X13.151Z-10.000
X0.376
Y33.639
X10.972
X12.099Z-8.528
X12.174Z-8.430
X12.399Z-8.401
X13.376
X13.451Z-8.370
X14.504Z-7.344
X14.954Z-6.970
X15.631Z-6.380
X15.706Z-6.340
X16.007Z-6.327
X19.839
X19.914Z-6.367
X20.064Z-6.615
X21.041Z-8.453
X21.267Z-8.833
X21.342Z-8.850
X22.169Z-8.601
X22.995Z-8.610
X24.122Z-8.849
X24.273Z-8.953
X24.423Z-8.996
X24.949Z-9.357
X25.701Z-9.919
X26.001Z-10.000
X63.124
Y35.862
X22.244
X21.192Z-9.172
X21.041Z-8.826
X20.215Z-7.445
X19.989Z-7.021
X19.764Z-6.670
X19.689Z-6.621
X19.614Z-6.523
X19.538Z-6.474
X19.463Z-6.376
X19.388Z-6.327
X16.232
X16.157Z-6.340
X15.856Z-6.585
X15.030Z-7.292
X14.654Z-7.519
X13.902Z-8.268
X13.827Z-8.359
X13.752Z-8.401
X12.775
X12.700Z-8.415
X12.550Z-8.557
X12.249Z-8.918
X11.573Z-10.000
X0.376
Y38.084
X13.978
X14.053Z-9.990
X14.128Z-9.950
X14.879Z-9.797
X15.030Z-9.649
X15.931Z-8.567
X16.457Z-8.249
X17.359Z-7.741
X18.186Z-7.741
X18.336Z-7.929
X18.486Z-7.929
X19.012Z-8.587
X19.614Z-9.577
X20.064Z-9.965
X20.140Z-10.000
X63.124
Y40.307
X0.376
Y42.529
X63.124
Y44.752
X0.376
Y46.974
X63.124
Y49.197
X0.376
Y51.419
X63.124
Y53.642
X0.376
Y55.864
X63.124
Y58.087
X0.376
Y60.309
X63.124
Y62.532
X0.376
Y64.754
X63.124
Y66.977
X0.376
Y69.199
X63.124
Y71.422
X0.376
Y73.644
X63.124
Y75.867
X0.376
Y78.089
X63.124
Y80.312
X0.376
Y82.534
X63.124
Y84.757
X0.376
Y86.979
X63.124
Y88.287
X63.034Y88.523
X0.376
G0Z5.080
G0X63.124Y0.302
G1Z-11.000F300.0
G1X0.376F1000.0
Y2.524
X63.124
Y4.747
X0.376
Y6.969
X63.124
Y9.192
X0.376
Y11.414
X34.267
X34.944Z-10.347
X35.395Z-9.706
X35.620Z-9.493
X36.597Z-8.571
X36.672
X36.822Z-8.440
X36.898Z-8.419
X38.100
X38.250Z-8.485
X38.401Z-8.530
X38.476Z-8.569
X38.626Z-8.576
X38.927Z-8.727
X39.002Z-8.744
X39.227Z-8.884
X39.302
X39.378Z-8.951
X39.528Z-9.008
X40.580Z-9.547
X41.857Z-10.648
X43.060Z-11.000
X63.124
Y13.637
X43.436
X42.383Z-10.646
X42.233Z-10.481
X41.181Z-9.571
X40.730Z-9.340
X40.054Z-8.270
X39.904Z-8.075
X38.851Z-7.534
X38.776Z-7.512
X37.273
X37.198Z-7.462
X36.898Z-7.128
X36.822Z-7.077
X36.672Z-6.915
X36.447Z-6.757
X36.372
X36.221Z-6.650
X36.146
X35.996Z-6.545
X35.094
X34.944Z-6.631
X34.793Z-6.686
X34.718Z-6.737
X34.568Z-6.792
X33.591Z-7.463
X33.441Z-7.637
X33.215Z-7.955
X32.163Z-9.116
X32.013Z-9.349
X31.863Z-9.551
X31.111Z-10.957
X30.961Z-11.000
X0.376
Y15.859
X26.076
X26.452Z-10.790
X26.527Z-10.786
X26.678Z-10.685
X26.828Z-10.681
X26.978Z-10.579
X27.730Z-10.583
X27.880Z-10.600
X27.955Z-10.579
X28.331Z-10.314
X28.857Z-9.998
X29.458Z-9.776
X29.533Z-9.725
X30.360Z-8.428
X31.412Z-6.216
X31.487Z-6.099
X32.614Z-5.254
X32.689Z-5.228
X35.996
X36.146Z-5.298
X37.048Z-6.467
X37.198Z-6.484
X37.724
X37.799Z-6.535
X38.776Z-7.621
X39.453Z-7.973
X39.528Z-8.038
X40.956Z-10.318
X41.857Z-11.000
X63.124
Y18.082
X39.904
X39.678Z-10.988
X38.476Z-8.603
X37.574Z-6.765
X36.447Z-5.291
X36.372Z-5.228
X32.314
X32.238Z-5.255
X32.088Z-5.366
X31.863Z-5.301
X31.788Z-5.257
X31.712Z-5.253
X31.562Z-5.145
X31.412Z-5.137
X31.337Z-5.036
X30.209Z-5.026
X30.134Z-5.068
X30.059Z-5.141
X29.984Z-5.164
X28.556Z-6.556
X27.880Z-7.179
X27.805Z-7.224
X26.828
X26.753Z-7.236
X26.602Z-7.348
X26.452Z-7.414
X25.400Z-8.048
X24.949Z-8.417
X24.874Z-8.495
X23.747Z-10.294
X23.296Z-10.792
X22.319Z-11.000
X0.376
Y20.304
X19.614
X20.666Z-10.918
X20.966Z-10.392
X21.868Z-8.706
X22.018Z-8.380
X22.394Z-7.839
X22.845Z-7.414
X23.146Z-7.142
X23.521Z-6.425
X23.672Z-6.213
X23.822Z-5.960
X24.573Z-5.015
X25.475Z-4.000
X26.602Z-2.942
X27.279Z-2.626
X27.730Z-2.386
X27.955Z-2.173
X28.180Z-1.936
X28.331Z-1.854
X29.308Z-1.518
X29.909
X30.059Z-1.647
X30.285
X30.811Z-2.089
X30.961Z-2.287
X31.036Z-2.348
X31.262Z-2.646
X31.487Z-2.683
X31.938Z-2.837
X32.088Z-2.921
X32.163Z-2.940
X32.539Z-3.198
X32.764Z-3.514
X33.741Z-5.210
X33.892Z-5.398
X34.042Z-5.535
X34.267Z-5.870
X34.343Z-5.959
X34.643Z-6.146
X35.545Z-6.962
X35.846Z-7.270
X37.273Z-9.195
X38.250Z-10.697
X38.776Z-11.000
X63.124
Y22.527
X38.851
X37.649Z-10.055
X35.620Z-6.842
X35.244Z-6.202
X34.042Z-3.976
X33.065Z-2.487
X32.614Z-1.912
X31.788Z-0.808
X31.712Z-0.747
X31.562Z-0.701
X31.487
X31.337Z-0.660
X30.886Z-0.612
X30.736Z-0.571
X30.360Z-0.537
X30.209Z-0.522
X30.134Z-0.499
X29.984
X29.759Z-0.471
X29.683
X28.556Z0.548
X28.481Z0.598
X26.753Z0.610
X26.151Z0.609
X26.001Z0.587
X24.949Z-0.012
X24.874Z-0.079
X24.724Z-0.355
X24.573Z-0.518
X23.596Z-2.365
X23.221Z-2.884
X22.845Z-3.678
X22.394Z-4.705
X21.718Z-6.029
X21.267Z-7.035
X20.741Z-8.446
X19.989Z-9.608
X19.689Z-10.141
X18.862Z-11.000
X0.376
Y24.749
X17.134
X18.111Z-10.877
X19.163Z-9.152
X19.463Z-8.679
X19.989Z-7.509
X20.741Z-5.815
X21.793Z-3.609
X22.093Z-3.016
X23.221Z-0.941
X23.822Z0.031
X23.972Z0.235
X24.122Z0.366
X24.348Z0.461
X25.024Z0.610
X29.383
X29.458Z0.595
X30.435Z-0.277
X30.585Z-0.471
X30.736Z-0.499
X30.961Z-0.614
X31.562Z-1.204
X31.938Z-1.697
X32.088Z-1.816
X32.915Z-2.335
X34.042Z-3.728
X34.343Z-4.261
X35.395Z-6.239
X36.597Z-8.370
X37.649Z-10.087
X38.851Z-11.000
X63.124
Y26.972
X37.123
X36.372Z-10.382
X35.996Z-9.554
X35.169Z-7.581
X35.094Z-7.414
X34.718Z-6.847
X33.817Z-5.574
X33.591Z-5.268
X33.366Z-4.985
X33.215Z-4.890
X33.140Z-4.796
X32.764Z-4.569
X32.689
X32.539Z-4.475
X32.389
X32.238Z-4.380
X32.163Z-4.368
X31.637Z-3.744
X31.111Z-3.286
X30.736Z-3.032
X30.285Z-2.173
X30.134Z-1.912
X29.308Z0.046
X29.157Z0.356
X29.007Z0.482
X28.331Z0.550
X27.128Z0.580
X26.001Z0.544
X24.498Z0.417
X24.348Z0.396
X24.198Z0.316
X23.972Z0.017
X23.070Z-1.386
X22.770Z-1.840
X22.244Z-2.801
X21.492Z-3.857
X20.666Z-5.225
X20.064Z-6.367
X18.036Z-10.313
X17.960Z-10.437
X17.585Z-10.879
X16.908Z-11.000
X0.376
Y29.194
X17.359
X17.960Z-10.683
X18.336Z-10.108
X19.463Z-8.196
X19.538Z-8.107
X19.689Z-7.872
X20.290Z-7.244
X20.440Z-7.099
X20.816Z-6.401
X21.567Z-5.239
X21.943Z-4.643
X22.620Z-3.878
X23.521Z-2.666
X23.596Z-2.568
X23.747Z-2.470
X23.822Z-2.372
X23.972Z-2.229
X25.024Z-0.730
X25.099Z-0.665
X25.175Z-0.569
X25.325Z-0.566
X25.400Z-0.496
X25.550Z-0.476
X25.701Z-0.416
X26.678Z-0.426
X27.354Z-0.682
X28.105Z-0.990
X28.331Z-1.265
X28.481Z-1.562
X28.556Z-1.671
X29.533Z-4.000
X29.683Z-4.157
X30.285Z-5.029
X30.811Z-6.263
X31.487Z-7.476
X31.712Z-7.833
X31.788Z-7.858
X32.389
X32.464Z-7.884
X32.539Z-7.968
X32.689Z-8.015
X32.840Z-8.122
X32.915Z-8.132
X34.042Z-8.819
X34.117Z-8.900
X34.192Z-8.929
X34.343Z-9.109
X34.418Z-9.124
X35.019Z-9.873
X35.470Z-10.811
X36.447Z-11.000
X63.124
Y31.417
X32.013
X31.262Z-10.109
X31.036Z-9.777
X30.886Z-9.644
X30.736Z-9.428
X29.984Z-8.842
X29.608Z-8.187
X29.533Z-8.112
X29.458Z-8.005
X29.383Z-7.931
X29.308Z-7.823
X29.233Z-7.749
X29.157Z-7.726
X29.007Z-7.567
X28.782Z-7.499
X28.707Z-7.460
X28.631Z-7.385
X28.406Z-7.317
X28.331Z-7.279
X27.805Z-6.817
X27.279Z-6.434
X26.602Z-5.724
X26.151Z-5.336
X26.001Z-5.286
X25.851Z-5.155
X25.776Z-5.115
X25.325
X24.348Z-5.540
X24.198Z-5.664
X24.047Z-5.751
X23.822Z-5.993
X23.747Z-6.050
X23.521
X23.446Z-6.106
X23.371Z-6.130
X23.146
X23.070Z-6.186
X22.995Z-6.210
X22.920
X22.845Z-6.266
X22.770Z-6.290
X22.695Z-6.346
X22.620Z-6.370
X22.469Z-6.506
X22.394Z-6.586
X22.319Z-6.609
X22.169Z-6.745
X22.018Z-6.881
X20.891Z-7.234
X19.839Z-8.270
X19.689Z-8.414
X19.388Z-8.543
X18.862Z-8.872
X18.787Z-8.931
X18.712Z-8.907
X18.637Z-8.801
X18.562
X18.411Z-8.577
X18.261
X18.111Z-8.354
X17.509
X17.434Z-8.367
X17.209Z-8.564
X17.134Z-8.590
X17.059Z-8.656
X16.307Z-8.653
X16.157Z-8.793
X16.007Z-8.800
X15.856Z-8.940
X15.781Z-8.946
X15.330Z-9.378
X15.105Z-9.526
X15.030Z-9.551
X14.579Z-9.552
X14.504Z-9.590
X14.428Z-9.677
X14.353
X14.278Z-9.702
X14.203Z-9.800
X14.128Z-9.821
X13.151Z-11.000
X0.376
Y33.639
X9.995
X10.972Z-10.526
X12.099Z-8.528
X12.174Z-8.430
X12.399Z-8.401
X13.376
X13.451Z-8.370
X14.504Z-7.344
X14.954Z-6.970
X15.631Z-6.380
X15.706Z-6.340
X16.007Z-6.327
X19.839
X19.914Z-6.367
X20.064Z-6.615
X21.041Z-8.453
X21.267Z-8.833
X21.342Z-8.850
X22.169Z-8.601
X22.995Z-8.610
X24.122Z-8.849
X24.273Z-8.953
X24.423Z-8.996
X24.949Z-9.357
X25.701Z-9.919
X26.001Z-10.231
X26.978Z-11.000
X63.124
Y35.862
X22.244
X21.192Z-9.172
X21.041Z-8.826
X20.215Z-7.445
X19.989Z-7.021
X19.764Z-6.670
X19.689Z-6.621
X19.614Z-6.523
X19.538Z-6.474
X19.463Z-6.376
X19.388Z-6.327
X16.232
X16.157Z-6.340
X15.856Z-6.585
X15.030Z-7.292
X14.654Z-7.519
X13.902Z-8.268
X13.827Z-8.359
X13.752Z-8.401
X12.775
X12.700Z-8.415
X12.550Z-8.557
X12.249Z-8.918
X11.573Z-10.109
X11.122Z-10.798
X10.446Z-11.000
X0.376
Y38.084
X12.625
X13.301Z-10.937
X13.752Z-10.233
X13.827Z-10.144
X13.978Z-10.090
X14.053Z-9.990
X14.128Z-9.950
X14.879Z-9.797
X15.030Z-9.649
X15.931Z-8.567
X16.457Z-8.249
X17.359Z-7.741
X18.186Z-7.741
X18.336Z-7.929
X18.486Z-7.929
X19.012Z-8.587
X19.614Z-9.577
X20.064Z-9.965
X20.140Z-10.094
X20.290Z-10.222
X20.741Z-11.000
X63.124
Y40.307
X0.376
Y42.529
X63.124
Y44.752
X0.376
Y46.974
X63.124
Y49.197
X0.376
Y51.419
X63.124
Y53.642
X0.376
Y55.864
X63.124
Y58.087
X0.376
Y60.309
X63.124
Y62.532
X0.376
Y64.754
X63.124
Y66.977
X0.376
Y69.199
X63.124
Y71.422
X0.376
Y73.644
X63.124
Y75.867
X0.376
Y78.089
X63.124
Y80.312
X0.376
Y82.534
X63.124
Y84.757
X0.376
Y86.979
X63.124
Y88.287
X63.034Y88.523
X0.376
G0Z5.080
G0X63.124Y0.302
G1Z-12.000F300.0
G1X0.376F1000.0
Y2.524
X63.124
Y4.747
X0.376
Y6.969
X63.124
Y9.192
X0.376
Y11.414
X33.666
X34.267Z-11.345
X34.944Z-10.347
X35.395Z-9.706
X35.620Z-9.493
X36.597Z-8.571
X36.672
X36.822Z-8.440
X36.898Z-8.419
X38.100
X38.250Z-8.485
X38.401Z-8.530
X38.476Z-8.569
X38.626Z-8.576
X38.927Z-8.727
X39.002Z-8.744
X39.227Z-8.884
X39.302
X39.378Z-8.951
X39.528Z-9.008
X40.580Z-9.547
X41.857Z-10.648
X43.060Z-11.448
X44.337Z-12.000
X63.124
Y13.637
X44.788
X43.436Z-11.342
X42.383Z-10.646
X42.233Z-10.481
X41.181Z-9.571
X40.730Z-9.340
X40.054Z-8.270
X39.904Z-8.075
X38.851Z-7.534
X38.776Z-7.512
X37.273
X37.198Z-7.462
X36.898Z-7.128
X36.822Z-7.077
X36.672Z-6.915
X36.447Z-6.757
X36.372
X36.221Z-6.650
X36.146
X35.996Z-6.545
X35.094
X34.944Z-6.631
X34.793Z-6.686
X34.718Z-6.737
X34.568Z-6.792
X33.591Z-7.463
X33.441Z-7.637
X33.215Z-7.955
X32.163Z-9.116
X32.013Z-9.349
X31.863Z-9.551
X31.111Z-10.957
X30.961Z-11.159
X29.834Z-12.000
X0.376
Y15.859
X24.799
X25.776Z-11.303
X26.076Z-11.046
X26.452Z-10.790
X26.527Z-10.786
X26.678Z-10.685
X26.828Z-10.681
X26.978Z-10.579
X27.730Z-10.583
X27.880Z-10.600
X27.955Z-10.579
X28.331Z-10.314
X28.857Z-9.998
X29.458Z-9.776
X29.533Z-9.725
X30.360Z-8.428
X31.412Z-6.216
X31.487Z-6.099
X32.614Z-5.254
X32.689Z-5.228
X35.996
X36.146Z-5.298
X37.048Z-6.467
X37.198Z-6.484
X37.724
X37.799Z-6.535
X38.776Z-7.621
X39.453Z-7.973
X39.528Z-8.038
X40.956Z-10.318
X41.857Z-11.677
X42.083Z-11.915
X43.060Z-12.000
X63.124
Y18.082
X40.655
X39.904Z-11.374
X39.678Z-10.988
X38.476Z-8.603
X37.574Z-6.765
X36.447Z-5.291
X36.372Z-5.228
X32.314
X32.238Z-5.255
X32.088Z-5.366
X31.863Z-5.301
X31.788Z-5.257
X31.712Z-5.253
X31.562Z-5.145
X31.412Z-5.137
X31.337Z-5.036
X30.209Z-5.026
X30.134Z-5.068
X30.059Z-5.141
X29.984Z-5.164
X28.556Z-6.556
X27.880Z-7.179
X27.805Z-7.224
X26.828
X26.753Z-7.236
X26.602Z-7.348
X26.452Z-7.414
X25.400Z-8.048
X24.949Z-8.417
X24.874Z-8.495
X23.747Z-10.294
X23.296Z-10.792
X22.319Z-11.850
X21.492Z-12.000
X0.376
Y20.304
X19.614
X20.666Z-10.918
X20.966Z-10.392
X21.868Z-8.706
X22.018Z-8.380
X22.394Z-7.839
X22.845Z-7.414
X23.146Z-7.142
X23.521Z-6.425
X23.672Z-6.213
X23.822Z-5.960
X24.573Z-5.015
X25.475Z-4.000
X26.602Z-2.942
X27.279Z-2.626
X27.730Z-2.386
X27.955Z-2.173
X28.180Z-1.936
X28.331Z-1.854
X29.308Z-1.518
X29.909
X30.059Z-1.647
X30.285
X30.811Z-2.089
X30.961Z-2.287
X31.036Z-2.348
X31.262Z-2.646
X31.487Z-2.683
X31.938Z-2.837
X32.088Z-2.921
X32.163Z-2.940
X32.539Z-3.198
X32.764Z-3.514
X33.741Z-5.210
X33.892Z-5.398
X34.042Z-5.535
X34.267Z-5.870
X34.343Z-5.959
X34.643Z-6.146
X35.545Z-6.962
X35.846Z-7.270
X37.273Z-9.195
X38.250Z-10.697
X38.776Z-11.354
X39.302Z-12.000
X63.124
Y22.527
X39.828
X39.002Z-11.751
X38.851Z-11.648
X37.649Z-10.055
X35.620Z-6.842
X35.244Z-6.202
X34.042Z-3.976
X33.065Z-2.487
X32.614Z-1.912
X31.788Z-0.808
X31.712Z-0.747
X31.562Z-0.701
X31.487
X31.337Z-0.660
X30.886Z-0.612
X30.736Z-0.571
X30.360Z-0.537
X30.209Z-0.522
X30.134Z-0.499
X29.984
X29.759Z-0.471
X29.683
X28.556Z0.548
X28.481Z0.598
X26.753Z0.610
X26.151Z0.609
X26.001Z0.587
X24.949Z-0.012
X24.874Z-0.079
X24.724Z-0.355
X24.573Z-0.518
X23.596Z-2.365
X23.221Z-2.884
X22.845Z-3.678
X22.394Z-4.705
X21.718Z-6.029
X21.267Z-7.035
X20.741Z-8.446
X19.989Z-9.608
X19.689Z-10.141
X18.862Z-11.451
X17.660Z-12.000
X0.376
Y24.749
X16.082
X17.134Z-11.707
X18.111Z-10.877
X19.163Z-9.152
X19.463Z-8.679
X19.989Z-7.509
X20.741Z-5.815
X21.793Z-3.609
X22.093Z-3.016
X23.221Z-0.941
X23.822Z0.031
X23.972Z0.235
X24.122Z0.366
X24.348Z0.461
X25.024Z0.610
X29.383
X29.458Z0.595
X30.435Z-0.277
X30.585Z-0.471
X30.736Z-0.499
X30.961Z-0.614
X31.562Z-1.204
X31.938Z-1.697
X32.088Z-1.816
X32.915Z-2.335
X34.042Z-3.728
X34.343Z-4.261
X35.395Z-6.239
X36.597Z-8.370
X37.649Z-10.087
X38.851Z-11.511
X40.805Z-12.000
X63.124
Y26.972
X37.724
X37.349Z-11.970
X37.123Z-11.714
X36.372Z-10.382
X35.996Z-9.554
X35.169Z-7.581
X35.094Z-7.414
X34.718Z-6.847
X33.817Z-5.574
X33.591Z-5.268
X33.366Z-4.985
X33.215Z-4.890
X33.140Z-4.796
X32.764Z-4.569
X32.689
X32.539Z-4.475
X32.389
X32.238Z-4.380
X32.163Z-4.368
X31.637Z-3.744
X31.111Z-3.286
X30.736Z-3.032
X30.285Z-2.173
X30.134Z-1.912
X29.308Z0.046
X29.157Z0.356
X29.007Z0.482
X28.331Z0.550
X27.128Z0.580
X26.001Z0.544
X24.498Z0.417
X24.348Z0.396
X24.198Z0.316
X23.972Z0.017
X23.070Z-1.386
X22.770Z-1.840
X22.244Z-2.801
X21.492Z-3.857
X20.666Z-5.225
X20.064Z-6.367
X18.036Z-10.313
X17.960Z-10.437
X17.585Z-10.879
X16.908Z-11.932
X16.082Z-12.000
X0.376
Y29.194
X16.758
X17.359Z-11.925
X17.960Z-10.683
X18.336Z-10.108
X19.463Z-8.196
X19.538Z-8.107
X19.689Z-7.872
X20.290Z-7.244
X20.440Z-7.099
X20.816Z-6.401
X21.567Z-5.239
X21.943Z-4.643
X22.620Z-3.878
X23.521Z-2.666
X23.596Z-2.568
X23.747Z-2.470
X23.822Z-2.372
X23.972Z-2.229
X25.024Z-0.730
X25.099Z-0.665
X25.175Z-0.569
X25.325Z-0.566
X25.400Z-0.496
X25.550Z-0.476
X25.701Z-0.416
X26.678Z-0.426
X27.354Z-0.682
X28.105Z-0.990
X28.331Z-1.265
X28.481Z-1.562
X28.556Z-1.671
X29.533Z-4.000
X29.683Z-4.157
X30.285Z-5.029
X30.811Z-6.263
X31.487Z-7.476
X31.712Z-7.833
X31.788Z-7.858
X32.389
X32.464Z-7.884
X32.539Z-7.968
X32.689Z-8.015
X32.840Z-8.122
X32.915Z-8.132
X34.042Z-8.819
X34.117Z-8.900
X34.192Z-8.929
X34.343Z-9.109
X34.418Z-9.124
X35.019Z-9.873
X35.470Z-10.811
X36.447Z-11.718
X36.898Z-12.000
X63.124
Y31.417
X34.343
X33.967Z-11.802
X33.892Z-11.781
X33.741Z-11.687
X32.840Z-11.433
X32.539Z-11.400
X32.013Z-11.121
X31.262Z-10.109
X31.036Z-9.777
X30.886Z-9.644
X30.736Z-9.428
X29.984Z-8.842
X29.608Z-8.187
X29.533Z-8.112
X29.458Z-8.005
X29.383Z-7.931
X29.308Z-7.823
X29.233Z-7.749
X29.157Z-7.726
X29.007Z-7.567
X28.782Z-7.499
X28.707Z-7.460
X28.631Z-7.385
X28.406Z-7.317
X28.331Z-7.279
X27.805Z-6.817
X27.279Z-6.434
X26.602Z-5.724
X26.151Z-5.336
X26.001Z-5.286
X25.851Z-5.155
X25.776Z-5.115
X25.325
X24.348Z-5.540
X24.198Z-5.664
X24.047Z-5.751
X23.822Z-5.993
X23.747Z-6.050
X23.521
X23.446Z-6.106
X23.371Z-6.130
X23.146
X23.070Z-6.186
X22.995Z-6.210
X22.920
X22.845Z-6.266
X22.770Z-6.290
X22.695Z-6.346
X22.620Z-6.370
X22.469Z-6.506
X22.394Z-6.586
X22.319Z-6.609
X22.169Z-6.745
X22.018Z-6.881
X20.891Z-7.234
X19.839Z-8.270
X19.689Z-8.414
X19.388Z-8.543
X18.862Z-8.872
X18.787Z-8.931
X18.712Z-8.907
X18.637Z-8.801
X18.562
X18.411Z-8.577
X18.261
X18.111Z-8.354
X17.509
X17.434Z-8.367
X17.209Z-8.564
X17.134Z-8.590
X17.059Z-8.656
X16.307Z-8.653
X16.157Z-8.793
X16.007Z-8.800
X15.856Z-8.940
X15.781Z-8.946
X15.330Z-9.378
X15.105Z-9.526
X15.030Z-9.551
X14.579Z-9.552
X14.504Z-9.590
X14.428Z-9.677
X14.353
X14.278Z-9.702
X14.203Z-9.800
X14.128Z-9.821
X13.151Z-11.197
X12.850Z-11.714
X12.249Z-12.000
X0.376
Y33.639
X7.515
X8.567Z-11.554
X8.717Z-11.535
X9.995
X10.972Z-10.526
X12.099Z-8.528
X12.174Z-8.430
X12.399Z-8.401
X13.376
X13.451Z-8.370
X14.504Z-7.344
X14.954Z-6.970
X15.631Z-6.380
X15.706Z-6.340
X16.007Z-6.327
X19.839
X19.914Z-6.367
X20.064Z-6.615
X21.041Z-8.453
X21.267Z-8.833
X21.342Z-8.850
X22.169Z-8.601
X22.995Z-8.610
X24.122Z-8.849
X24.273Z-8.953
X24.423Z-8.996
X24.949Z-9.357
X25.701Z-9.919
X26.001Z-10.231
X26.978Z-11.581
X27.053Z-11.664
X27.880Z-12.000
X63.124
Y35.862
X22.244
X21.192Z-9.172
X21.041Z-8.826
X20.215Z-7.445
X19.989Z-7.021
X19.764Z-6.670
X19.689Z-6.621
X19.614Z-6.523
X19.538Z-6.474
X19.463Z-6.376
X19.388Z-6.327
X16.232
X16.157Z-6.340
X15.856Z-6.585
X15.030Z-7.292
X14.654Z-7.519
X13.902Z-8.268
X13.827Z-8.359
X13.752Z-8.401
X12.775
X12.700Z-8.415
X12.550Z-8.557
X12.249Z-8.918
X11.573Z-10.109
X11.122Z-10.798
X10.446Z-11.519
X10.295Z-11.535
X9.243
X9.018Z-11.607
X8.492Z-11.984
X7.740Z-12.000
X0.376
Y38.084
X12.399
X12.625Z-11.948
X13.301Z-10.937
X13.752Z-10.233
X13.827Z-10.144
X13.978Z-10.090
X14.053Z-9.990
X14.128Z-9.950
X14.879Z-9.797
X15.030Z-9.649
X15.931Z-8.567
X16.457Z-8.249
X17.359Z-7.741
X18.186Z-7.741
X18.336Z-7.929
X18.486Z-7.929
X19.012Z-8.587
X19.614Z-9.577
X20.064Z-9.965
X20.140Z-10.094
X20.290Z-10.222
X20.741Z-11.007
X20.816Z-11.240
X20.891Z-11.393
X21.041Z-11.804
X22.093Z-12.000
X63.124
Y40.307
X0.376
Y42.529
X63.124
Y44.752
X0.376
Y46.974
X63.124
Y49.197
X0.376
Y51.419
X63.124
Y53.642
X0.376
Y55.864
X63.124
Y58.087
X0.376
Y60.309
X63.124
Y62.532
X0.376
Y64.754
X63.124
Y66.977
X0.376
Y69.199
X63.124
Y71.422
X0.376
Y73.644
X63.124
Y75.867
X0.376
Y78.089
X63.124
Y80.312
X0.376
Y82.534
X63.124
Y84.757
X0.376
Y86.979
X63.124
Y88.287
X63.034Y88.523
X0.376
G0Z5.080
G0X63.124Y0.302
G1Z-13.000F300.0
G1X0.376F1000.0
Y2.524
X63.124
Y4.747
X0.376
Y6.969
X63.124
Y9.192
X41.857
X41.106Z-12.899
X40.655Z-12.696
X39.528Z-12.529
X38.701Z-12.535
X37.574Z-13.000
X0.376
Y11.414
X32.238
X33.140Z-12.694
X33.666Z-12.085
X34.267Z-11.345
X34.944Z-10.347
X35.395Z-9.706
X35.620Z-9.493
X36.597Z-8.571
X36.672
X36.822Z-8.440
X36.898Z-8.419
X38.100
X38.250Z-8.485
X38.401Z-8.530
X38.476Z-8.569
X38.626Z-8.576
X38.927Z-8.727
X39.002Z-8.744
X39.227Z-8.884
X39.302
X39.378Z-8.951
X39.528Z-9.008
X40.580Z-9.547
X41.857Z-10.648
X43.060Z-11.448
X44.337Z-12.663
X45.389Z-13.000
X63.124
Y13.637
X45.690
X44.788Z-12.605
X43.436Z-11.342
X42.383Z-10.646
X42.233Z-10.481
X41.181Z-9.571
X40.730Z-9.340
X40.054Z-8.270
X39.904Z-8.075
X38.851Z-7.534
X38.776Z-7.512
X37.273
X37.198Z-7.462
X36.898Z-7.128
X36.822Z-7.077
X36.672Z-6.915
X36.447Z-6.757
X36.372
X36.221Z-6.650
X36.146
X35.996Z-6.545
X35.094
X34.944Z-6.631
X34.793Z-6.686
X34.718Z-6.737
X34.568Z-6.792
X33.591Z-7.463
X33.441Z-7.637
X33.215Z-7.955
X32.163Z-9.116
X32.013Z-9.349
X31.863Z-9.551
X31.111Z-10.957
X30.961Z-11.159
X29.834Z-12.506
X29.608Z-12.682
X28.782Z-13.000
X0.376
Y15.859
X23.672
X24.498Z-12.745
X24.799Z-12.338
X25.776Z-11.303
X26.076Z-11.046
X26.452Z-10.790
X26.527Z-10.786
X26.678Z-10.685
X26.828Z-10.681
X26.978Z-10.579
X27.730Z-10.583
X27.880Z-10.600
X27.955Z-10.579
X28.331Z-10.314
X28.857Z-9.998
X29.458Z-9.776
X29.533Z-9.725
X30.360Z-8.428
X31.412Z-6.216
X31.487Z-6.099
X32.614Z-5.254
X32.689Z-5.228
X35.996
X36.146Z-5.298
X37.048Z-6.467
X37.198Z-6.484
X37.724
X37.799Z-6.535
X38.776Z-7.621
X39.453Z-7.973
X39.528Z-8.038
X40.956Z-10.318
X41.857Z-11.677
X42.083Z-11.915
X43.060Z-12.854
X43.736Z-13.000
X63.124
Y18.082
X41.181
X40.655Z-12.445
X39.904Z-11.374
X39.678Z-10.988
X38.476Z-8.603
X37.574Z-6.765
X36.447Z-5.291
X36.372Z-5.228
X32.314
X32.238Z-5.255
X32.088Z-5.366
X31.863Z-5.301
X31.788Z-5.257
X31.712Z-5.253
X31.562Z-5.145
X31.412Z-5.137
X31.337Z-5.036
X30.209Z-5.026
X30.134Z-5.068
X30.059Z-5.141
X29.984Z-5.164
X28.556Z-6.556
X27.880Z-7.179
X27.805Z-7.224
X26.828
X26.753Z-7.236
X26.602Z-7.348
X26.452Z-7.414
X25.400Z-8.048
X24.949Z-8.417
X24.874Z-8.495
X23.747Z-10.294
X23.296Z-10.792
X22.319Z-11.850
X21.492Z-12.805
X21.342Z-12.947
X20.666Z-13.000
X0.376
Y20.304
X19.463
X19.614Z-12.973
X20.666Z-10.918
X20.966Z-10.392
X21.868Z-8.706
X22.018Z-8.380
X22.394Z-7.839
X22.845Z-7.414
X23.146Z-7.142
X23.521Z-6.425
X23.672Z-6.213
X23.822Z-5.960
X24.573Z-5.015
X25.475Z-4.000
X26.602Z-2.942
X27.279Z-2.626
X27.730Z-2.386
X27.955Z-2.173
X28.180Z-1.936
X28.331Z-1.854
X29.308Z-1.518
X29.909
X30.059Z-1.647
X30.285
X30.811Z-2.089
X30.961Z-2.287
X31.036Z-2.348
X31.262Z-2.646
X31.487Z-2.683
X31.938Z-2.837
X32.088Z-2.921
X32.163Z-2.940
X32.539Z-3.198
X32.764Z-3.514
X33.741Z-5.210
X33.892Z-5.398
X34.042Z-5.535
X34.267Z-5.870
X34.343Z-5.959
X34.643Z-6.146
X35.545Z-6.962
X35.846Z-7.270
X37.273Z-9.195
X38.250Z-10.697
X38.776Z-11.354
X39.302Z-12.164
X40.279Z-13.000
X63.124
Y22.527
X41.031
X40.129Z-12.672
X39.828Z-12.456
X39.002Z-11.751
X38.851Z-11.648
X37.649Z-10.055
X35.620Z-6.842
X35.244Z-6.202
X34.042Z-3.976
X33.065Z-2.487
X32.614Z-1.912
X31.788Z-0.808
X31.712Z-0.747
X31.562Z-0.701
X31.487
X31.337Z-0.660
X30.886Z-0.612
X30.736Z-0.571
X30.360Z-0.537
X30.209Z-0.522
X30.134Z-0.499
X29.984
X29.759Z-0.471
X29.683
X28.556Z0.548
X28.481Z0.598
X26.753Z0.610
X26.151Z0.609
X26.001Z0.587
X24.949Z-0.012
X24.874Z-0.079
X24.724Z-0.355
X24.573Z-0.518
X23.596Z-2.365
X23.221Z-2.884
X22.845Z-3.678
X22.394Z-4.705
X21.718Z-6.029
X21.267Z-7.035
X20.741Z-8.446
X19.989Z-9.608
X19.689Z-10.141
X18.862Z-11.451
X17.660Z-12.635
X16.608Z-13.000
X0.376
Y24.749
X15.631
X15.781Z-12.801
X16.082Z-12.544
X17.134Z-11.707
X18.111Z-10.877
X19.163Z-9.152
X19.463Z-8.679
X19.989Z-7.509
X20.741Z-5.815
X21.793Z-3.609
X22.093Z-3.016
X23.221Z-0.941
X23.822Z0.031
X23.972Z0.235
X24.122Z0.366
X24.348Z0.461
X25.024Z0.610
X29.383
X29.458Z0.595
X30.435Z-0.277
X30.585Z-0.471
X30.736Z-0.499
X30.961Z-0.614
X31.562Z-1.204
X31.938Z-1.697
X32.088Z-1.816
X32.915Z-2.335
X34.042Z-3.728
X34.343Z-4.261
X35.395Z-6.239
X36.597Z-8.370
X37.649Z-10.087
X38.851Z-11.511
X40.805Z-12.759
X41.181Z-13.000
X63.124
Y26.972
X39.002
X38.401Z-12.681
X37.724Z-12.245
X37.349Z-11.970
X37.123Z-11.714
X36.372Z-10.382
X35.996Z-9.554
X35.169Z-7.581
X35.094Z-7.414
X34.718Z-6.847
X33.817Z-5.574
X33.591Z-5.268
X33.366Z-4.985
X33.215Z-4.890
X33.140Z-4.796
X32.764Z-4.569
X32.689
X32.539Z-4.475
X32.389
X32.238Z-4.380
X32.163Z-4.368
X31.637Z-3.744
X31.111Z-3.286
X30.736Z-3.032
X30.285Z-2.173
X30.134Z-1.912
X29.308Z0.046
X29.157Z0.356
X29.007Z0.482
X28.331Z0.550
X27.128Z0.580
X26.001Z0.544
X24.498Z0.417
X24.348Z0.396
X24.198Z0.316
X23.972Z0.017
X23.070Z-1.386
X22.770Z-1.840
X22.244Z-2.801
X21.492Z-3.857
X20.666Z-5.225
X20.064Z-6.367
X18.036Z-10.313
X17.960Z-10.437
X17.585Z-10.879
X16.908Z-11.932
X16.082Z-12.594
X16.007Z-12.666
X15.931Z-12.773
X14.879Z-13.000
X0.376
Y29.194
X16.608
X16.758Z-12.834
X17.359Z-11.925
X17.960Z-10.683
X18.336Z-10.108
X19.463Z-8.196
X19.538Z-8.107
X19.689Z-7.872
X20.290Z-7.244
X20.440Z-7.099
X20.816Z-6.401
X21.567Z-5.239
X21.943Z-4.643
X22.620Z-3.878
X23.521Z-2.666
X23.596Z-2.568
X23.747Z-2.470
X23.822Z-2.372
X23.972Z-2.229
X25.024Z-0.730
X25.099Z-0.665
X25.175Z-0.569
X25.325Z-0.566
X25.400Z-0.496
X25.550Z-0.476
X25.701Z-0.416
X26.678Z-0.426
X27.354Z-0.682
X28.105Z-0.990
X28.331Z-1.265
X28.481Z-1.562
X28.556Z-1.671
X29.533Z-4.000
X29.683Z-4.157
X30.285Z-5.029
X30.811Z-6.263
X31.487Z-7.476
X31.712Z-7.833
X31.788Z-7.858
X32.389
X32.464Z-7.884
X32.539Z-7.968
X32.689Z-8.015
X32.840Z-8.122
X32.915Z-8.132
X34.042Z-8.819
X34.117Z-8.900
X34.192Z-8.929
X34.343Z-9.109
X34.418Z-9.124
X35.019Z-9.873
X35.470Z-10.811
X36.447Z-11.718
X36.898Z-12.488
X37.649Z-13.000
X63.124
Y31.417
X35.470
X34.643Z-12.346
X34.343Z-12.076
X33.967Z-11.802
X33.892Z-11.781
X33.741Z-11.687
X32.840Z-11.433
X32.539Z-11.400
X32.013Z-11.121
X31.262Z-10.109
X31.036Z-9.777
X30.886Z-9.644
X30.736Z-9.428
X29.984Z-8.842
X29.608Z-8.187
X29.533Z-8.112
X29.458Z-8.005
X29.383Z-7.931
X29.308Z-7.823
X29.233Z-7.749
X29.157Z-7.726
X29.007Z-7.567
X28.782Z-7.499
X28.707Z-7.460
X28.631Z-7.385
X28.406Z-7.317
X28.331Z-7.279
X27.805Z-6.817
X27.279Z-6.434
X26.602Z-5.724
X26.151Z-5.336
X26.001Z-5.286
X25.851Z-5.155
X25.776Z-5.115
X25.325
X24.348Z-5.540
X24.198Z-5.664
X24.047Z-5.751
X23.822Z-5.993
X23.747Z-6.050
X23.521
X23.446Z-6.106
X23.371Z-6.130
X23.146
X23.070Z-6.186
X22.995Z-6.210
X22.920
X22.845Z-6.266
X22.770Z-6.290
X22.695Z-6.346
X22.620Z-6.370
X22.469Z-6.506
X22.394Z-6.586
X22.319Z-6.609
X22.169Z-6.745
X22.018Z-6.881
X20.891Z-7.234
X19.839Z-8.270
X19.689Z-8.414
X19.388Z-8.543
X18.862Z-8.872
X18.787Z-8.931
X18.712Z-8.907
X18.637Z-8.801
X18.562
X18.411Z-8.577
X18.261
X18.111Z-8.354
X17.509
X17.434Z-8.367
X17.209Z-8.564
X17.134Z-8.590
X17.059Z-8.656
X16.307Z-8.653
X16.157Z-8.793
X16.007Z-8.800
X15.856Z-8.940
X15.781Z-8.946
X15.330Z-9.378
X15.105Z-9.526
X15.030Z-9.551
X14.579Z-9.552
X14.504Z-9.590
X14.428Z-9.677
X14.353
X14.278Z-9.702
X14.203Z-9.800
X14.128Z-9.821
X13.151Z-11.197
X12.850Z-11.714
X12.249Z-12.106
X12.099Z-12.250
X11.949Z-12.242
X11.573Z-12.181
X10.972
X10.446Z-12.292
X10.070Z-12.410
X9.844Z-12.497
X9.769Z-12.553
X9.694Z-12.584
X9.619Z-12.640
X9.544Z-12.671
X9.168Z-12.960
X9.018Z-13.000
X0.376
Y33.639
X6.388
X7.515Z-12.338
X8.567Z-11.554
X8.717Z-11.535
X9.995
X10.972Z-10.526
X12.099Z-8.528
X12.174Z-8.430
X12.399Z-8.401
X13.376
X13.451Z-8.370
X14.504Z-7.344
X14.954Z-6.970
X15.631Z-6.380
X15.706Z-6.340
X16.007Z-6.327
X19.839
X19.914Z-6.367
X20.064Z-6.615
X21.041Z-8.453
X21.267Z-8.833
X21.342Z-8.850
X22.169Z-8.601
X22.995Z-8.610
X24.122Z-8.849
X24.273Z-8.953
X24.423Z-8.996
X24.949Z-9.357
X25.701Z-9.919
X26.001Z-10.231
X26.978Z-11.581
X27.053Z-11.664
X27.880Z-12.237
X28.857Z-12.517
X29.458Z-12.786
X30.360Z-13.000
X63.124
Y35.862
X22.469
X22.319Z-12.879
X22.244Z-12.697
X21.192Z-9.172
X21.041Z-8.826
X20.215Z-7.445
X19.989Z-7.021
X19.764Z-6.670
X19.689Z-6.621
X19.614Z-6.523
X19.538Z-6.474
X19.463Z-6.376
X19.388Z-6.327
X16.232
X16.157Z-6.340
X15.856Z-6.585
X15.030Z-7.292
X14.654Z-7.519
X13.902Z-8.268
X13.827Z-8.359
X13.752Z-8.401
X12.775
X12.700Z-8.415
X12.550Z-8.557
X12.249Z-8.918
X11.573Z-10.109
X11.122Z-10.798
X10.446Z-11.519
X10.295Z-11.535
X9.243
X9.018Z-11.607
X8.492Z-11.984
X7.740Z-12.560
X7.064Z-13.000
X0.376
Y38.084
X11.648
X11.949Z-12.683
X12.399Z-12.087
X12.625Z-11.948
X13.301Z-10.937
X13.752Z-10.233
X13.827Z-10.144
X13.978Z-10.090
X14.053Z-9.990
X14.128Z-9.950
X14.879Z-9.797
X15.030Z-9.649
X15.931Z-8.567
X16.457Z-8.249
X17.359Z-7.741
X18.186Z-7.741
X18.336Z-7.929
X18.486Z-7.929
X19.012Z-8.587
X19.614Z-9.577
X20.064Z-9.965
X20.140Z-10.094
X20.290Z-10.222
X20.741Z-11.007
X20.816Z-11.240
X20.891Z-11.393
X21.041Z-11.804
X22.093Z-13.000
X63.124
Y40.307
X18.712
X18.336Z-12.784
X17.284
X17.209Z-12.801
X16.983Z-12.929
X16.758Z-13.000
X0.376
Y42.529
X63.124
Y44.752
X0.376
Y46.974
X63.124
Y49.197
X0.376
Y51.419
X63.124
Y53.642
X0.376
Y55.864
X63.124
Y58.087
X0.376
Y60.309
X63.124
Y62.532
X0.376
Y64.754
X63.124
Y66.977
X0.376
Y69.199
X63.124
Y71.422
X0.376
Y73.644
X63.124
Y75.867
X0.376
Y78.089
X63.124
Y80.312
X0.376
Y82.534
X63.124
Y84.757
X0.376
Y86.979
X63.124
Y88.287
X63.034Y88.523
X0.376
G0Z5.080
G0X63.124Y0.302
G1Z-14.000F300.0
G1X0.376F1000.0
Y2.524
X63.124
Y4.747
X0.376
Y6.969
X63.124
Y9.192
X43.060
X42.158Z-13.438
X41.857Z-13.262
X41.106Z-12.899
X40.655Z-12.696
X39.528Z-12.529
X38.701Z-12.535
X37.574Z-13.074
X37.424Z-13.179
X37.273Z-13.245
X37.048Z-13.431
X36.296Z-14.000
X0.376
Y11.414
X31.111
X31.863Z-13.917
X32.238Z-13.504
X33.140Z-12.694
X33.666Z-12.085
X34.267Z-11.345
X34.944Z-10.347
X35.395Z-9.706
X35.620Z-9.493
X36.597Z-8.571
X36.672
X36.822Z-8.440
X36.898Z-8.419
X38.100
X38.250Z-8.485
X38.401Z-8.530
X38.476Z-8.569
X38.626Z-8.576
X38.927Z-8.727
X39.002Z-8.744
X39.227Z-8.884
X39.302
X39.378Z-8.951
X39.528Z-9.008
X40.580Z-9.547
X41.857Z-10.648
X43.060Z-11.448
X44.337Z-12.663
X45.389Z-13.926
X46.141Z-14.000
X63.124
Y13.637
X47.118
X45.690Z-13.692
X44.788Z-12.605
X43.436Z-11.342
X42.383Z-10.646
X42.233Z-10.481
X41.181Z-9.571
X40.730Z-9.340
X40.054Z-8.270
X39.904Z-8.075
X38.851Z-7.534
X38.776Z-7.512
X37.273
X37.198Z-7.462
X36.898Z-7.128
X36.822Z-7.077
X36.672Z-6.915
X36.447Z-6.757
X36.372
X36.221Z-6.650
X36.146
X35.996Z-6.545
X35.094
X34.944Z-6.631
X34.793Z-6.686
X34.718Z-6.737
X34.568Z-6.792
X33.591Z-7.463
X33.441Z-7.637
X33.215Z-7.955
X32.163Z-9.116
X32.013Z-9.349
X31.863Z-9.551
X31.111Z-10.957
X30.961Z-11.159
X29.834Z-12.506
X29.608Z-12.682
X28.782Z-13.213
X27.429Z-13.865
X26.377Z-14.000
X0.376
Y15.859
X23.296
X23.672Z-13.777
X24.498Z-12.745
X24.799Z-12.338
X25.776Z-11.303
X26.076Z-11.046
X26.452Z-10.790
X26.527Z-10.786
X26.678Z-10.685
X26.828Z-10.681
X26.978Z-10.579
X27.730Z-10.583
X27.880Z-10.600
X27.955Z-10.579
X28.331Z-10.314
X28.857Z-9.998
X29.458Z-9.776
X29.533Z-9.725
X30.360Z-8.428
X31.412Z-6.216
X31.487Z-6.099
X32.614Z-5.254
X32.689Z-5.228
X35.996
X36.146Z-5.298
X37.048Z-6.467
X37.198Z-6.484
X37.724
X37.799Z-6.535
X38.776Z-7.621
X39.453Z-7.973
X39.528Z-8.038
X40.956Z-10.318
X41.857Z-11.677
X42.083Z-11.915
X43.060Z-12.854
X43.736Z-13.189
X44.112Z-13.404
X44.412Z-13.661
X45.690Z-14.000
X63.124
Y18.082
X42.383
X41.181Z-13.145
X40.655Z-12.445
X39.904Z-11.374
X39.678Z-10.988
X38.476Z-8.603
X37.574Z-6.765
X36.447Z-5.291
X36.372Z-5.228
X32.314
X32.238Z-5.255
X32.088Z-5.366
X31.863Z-5.301
X31.788Z-5.257
X31.712Z-5.253
X31.562Z-5.145
X31.412Z-5.137
X31.337Z-5.036
X30.209Z-5.026
X30.134Z-5.068
X30.059Z-5.141
X29.984Z-5.164
X28.556Z-6.556
X27.880Z-7.179
X27.805Z-7.224
X26.828
X26.753Z-7.236
X26.602Z-7.348
X26.452Z-7.414
X25.400Z-8.048
X24.949Z-8.417
X24.874Z-8.495
X23.747Z-10.294
X23.296Z-10.792
X22.319Z-11.850
X21.492Z-12.805
X21.342Z-12.947
X20.666Z-13.853
X20.215Z-14.000
X0.376
Y20.304
X18.712
X19.463Z-13.186
X19.614Z-12.973
X20.666Z-10.918
X20.966Z-10.392
X21.868Z-8.706
X22.018Z-8.380
X22.394Z-7.839
X22.845Z-7.414
X23.146Z-7.142
X23.521Z-6.425
X23.672Z-6.213
X23.822Z-5.960
X24.573Z-5.015
X25.475Z-4.000
X26.602Z-2.942
X27.279Z-2.626
X27.730Z-2.386
X27.955Z-2.173
X28.180Z-1.936
X28.331Z-1.854
X29.308Z-1.518
X29.909
X30.059Z-1.647
X30.285
X30.811Z-2.089
X30.961Z-2.287
X31.036Z-2.348
X31.262Z-2.646
X31.487Z-2.683
X31.938Z-2.837
X32.088Z-2.921
X32.163Z-2.940
X32.539Z-3.198
X32.764Z-3.514
X33.741Z-5.210
X33.892Z-5.398
X34.042Z-5.535
X34.267Z-5.870
X34.343Z-5.959
X34.643Z-6.146
X35.545Z-6.962
X35.846Z-7.270
X37.273Z-9.195
X38.250Z-10.697
X38.776Z-11.354
X39.302Z-12.164
X40.279Z-13.253
X40.580Z-13.553
X41.482Z-14.000
X63.124
Y22.527
X42.158
X41.031Z-13.306
X40.129Z-12.672
X39.828Z-12.456
X39.002Z-11.751
X38.851Z-11.648
X37.649Z-10.055
X35.620Z-6.842
X35.244Z-6.202
X34.042Z-3.976
X33.065Z-2.487
X32.614Z-1.912
X31.788Z-0.808
X31.712Z-0.747
X31.562Z-0.701
X31.487
X31.337Z-0.660
X30.886Z-0.612
X30.736Z-0.571
X30.360Z-0.537
X30.209Z-0.522
X30.134Z-0.499
X29.984
X29.759Z-0.471
X29.683
X28.556Z0.548
X28.481Z0.598
X26.753Z0.610
X26.151Z0.609
X26.001Z0.587
X24.949Z-0.012
X24.874Z-0.079
X24.724Z-0.355
X24.573Z-0.518
X23.596Z-2.365
X23.221Z-2.884
X22.845Z-3.678
X22.394Z-4.705
X21.718Z-6.029
X21.267Z-7.035
X20.741Z-8.446
X19.989Z-9.608
X19.689Z-10.141
X18.862Z-11.451
X17.660Z-12.635
X16.608Z-13.339
X16.457Z-13.500
X16.307Z-13.606
X16.007Z-13.992
X15.255Z-14.000
X0.376
Y24.749
X15.105
X15.631Z-13.032
X15.781Z-12.801
X16.082Z-12.544
X17.134Z-11.707
X18.111Z-10.877
X19.163Z-9.152
X19.463Z-8.679
X19.989Z-7.509
X20.741Z-5.815
X21.793Z-3.609
X22.093Z-3.016
X23.221Z-0.941
X23.822Z0.031
X23.972Z0.235
X24.122Z0.366
X24.348Z0.461
X25.024Z0.610
X29.383
X29.458Z0.595
X30.435Z-0.277
X30.585Z-0.471
X30.736Z-0.499
X30.961Z-0.614
X31.562Z-1.204
X31.938Z-1.697
X32.088Z-1.816
X32.915Z-2.335
X34.042Z-3.728
X34.343Z-4.261
X35.395Z-6.239
X36.597Z-8.370
X37.649Z-10.087
X38.851Z-11.511
X40.805Z-12.759
X41.181Z-13.006
X41.407Z-13.288
X42.383Z-14.000
X63.124
Y26.972
X40.430
X39.603Z-13.600
X39.002Z-13.191
X38.401Z-12.681
X37.724Z-12.245
X37.349Z-11.970
X37.123Z-11.714
X36.372Z-10.382
X35.996Z-9.554
X35.169Z-7.581
X35.094Z-7.414
X34.718Z-6.847
X33.817Z-5.574
X33.591Z-5.268
X33.366Z-4.985
X33.215Z-4.890
X33.140Z-4.796
X32.764Z-4.569
X32.689
X32.539Z-4.475
X32.389
X32.238Z-4.380
X32.163Z-4.368
X31.637Z-3.744
X31.111Z-3.286
X30.736Z-3.032
X30.285Z-2.173
X30.134Z-1.912
X29.308Z0.046
X29.157Z0.356
X29.007Z0.482
X28.331Z0.550
X27.128Z0.580
X26.001Z0.544
X24.498Z0.417
X24.348Z0.396
X24.198Z0.316
X23.972Z0.017
X23.070Z-1.386
X22.770Z-1.840
X22.244Z-2.801
X21.492Z-3.857
X20.666Z-5.225
X20.064Z-6.367
X18.036Z-10.313
X17.960Z-10.437
X17.585Z-10.879
X16.908Z-11.932
X16.082Z-12.594
X16.007Z-12.666
X15.931Z-12.773
X14.879Z-14.000
X0.376
Y29.194
X13.451
X14.353Z-13.671
X14.428Z-13.636
X14.504Z-13.553
X14.579Z-13.518
X14.654Z-13.508
X14.729Z-13.436
X14.804Z-13.400
X14.879Z-13.390
X14.954Z-13.318
X15.030Z-13.282
X16.307Z-13.035
X16.608
X16.758Z-12.834
X17.359Z-11.925
X17.960Z-10.683
X18.336Z-10.108
X19.463Z-8.196
X19.538Z-8.107
X19.689Z-7.872
X20.290Z-7.244
X20.440Z-7.099
X20.816Z-6.401
X21.567Z-5.239
X21.943Z-4.643
X22.620Z-3.878
X23.521Z-2.666
X23.596Z-2.568
X23.747Z-2.470
X23.822Z-2.372
X23.972Z-2.229
X25.024Z-0.730
X25.099Z-0.665
X25.175Z-0.569
X25.325Z-0.566
X25.400Z-0.496
X25.550Z-0.476
X25.701Z-0.416
X26.678Z-0.426
X27.354Z-0.682
X28.105Z-0.990
X28.331Z-1.265
X28.481Z-1.562
X28.556Z-1.671
X29.533Z-4.000
X29.683Z-4.157
X30.285Z-5.029
X30.811Z-6.263
X31.487Z-7.476
X31.712Z-7.833
X31.788Z-7.858
X32.389
X32.464Z-7.884
X32.539Z-7.968
X32.689Z-8.015
X32.840Z-8.122
X32.915Z-8.132
X34.042Z-8.819
X34.117Z-8.900
X34.192Z-8.929
X34.343Z-9.109
X34.418Z-9.124
X35.019Z-9.873
X35.470Z-10.811
X36.447Z-11.718
X36.898Z-12.488
X37.649Z-13.803
X37.875Z-14.000
X63.124
Y31.417
X37.198
X35.921Z-13.543
X35.770Z-13.329
X35.620Z-13.211
X35.470Z-13.008
X34.643Z-12.346
X34.343Z-12.076
X33.967Z-11.802
X33.892Z-11.781
X33.741Z-11.687
X32.840Z-11.433
X32.539Z-11.400
X32.013Z-11.121
X31.262Z-10.109
X31.036Z-9.777
X30.886Z-9.644
X30.736Z-9.428
X29.984Z-8.842
X29.608Z-8.187
X29.533Z-8.112
X29.458Z-8.005
X29.383Z-7.931
X29.308Z-7.823
X29.233Z-7.749
X29.157Z-7.726
X29.007Z-7.567
X28.782Z-7.499
X28.707Z-7.460
X28.631Z-7.385
X28.406Z-7.317
X28.331Z-7.279
X27.805Z-6.817
X27.279Z-6.434
X26.602Z-5.724
X26.151Z-5.336
X26.001Z-5.286
X25.851Z-5.155
X25.776Z-5.115
X25.325
X24.348Z-5.540
X24.198Z-5.664
X24.047Z-5.751
X23.822Z-5.993
X23.747Z-6.050
X23.521
X23.446Z-6.106
X23.371Z-6.130
X23.146
X23.070Z-6.186
X22.995Z-6.210
X22.920
X22.845Z-6.266
X22.770Z-6.290
X22.695Z-6.346
X22.620Z-6.370
X22.469Z-6.506
X22.394Z-6.586
X22.319Z-6.609
X22.169Z-6.745
X22.018Z-6.881
X20.891Z-7.234
X19.839Z-8.270
X19.689Z-8.414
X19.388Z-8.543
X18.862Z-8.872
X18.787Z-8.931
X18.712Z-8.907
X18.637Z-8.801
X18.562
X18.411Z-8.577
X18.261
X18.111Z-8.354
X17.509
X17.434Z-8.367
X17.209Z-8.564
X17.134Z-8.590
X17.059Z-8.656
X16.307Z-8.653
X16.157Z-8.793
X16.007Z-8.800
X15.856Z-8.940
X15.781Z-8.946
X15.330Z-9.378
X15.105Z-9.526
X15.030Z-9.551
X14.579Z-9.552
X14.504Z-9.590
X14.428Z-9.677
X14.353
X14.278Z-9.702
X14.203Z-9.800
X14.128Z-9.821
X13.151Z-11.197
X12.850Z-11.714
X12.249Z-12.106
X12.099Z-12.250
X11.949Z-12.242
X11.573Z-12.181
X10.972
X10.446Z-12.292
X10.070Z-12.410
X9.844Z-12.497
X9.769Z-12.553
X9.694Z-12.584
X9.619Z-12.640
X9.544Z-12.671
X9.168Z-12.960
X9.018Z-13.136
X8.266Z-14.000
X0.376
Y33.639
X5.110
X6.087Z-13.475
X6.388Z-13.363
X7.515Z-12.338
X8.567Z-11.554
X8.717Z-11.535
X9.995
X10.972Z-10.526
X12.099Z-8.528
X12.174Z-8.430
X12.399Z-8.401
X13.376
X13.451Z-8.370
X14.504Z-7.344
X14.954Z-6.970
X15.631Z-6.380
X15.706Z-6.340
X16.007Z-6.327
X19.839
X19.914Z-6.367
X20.064Z-6.615
X21.041Z-8.453
X21.267Z-8.833
X21.342Z-8.850
X22.169Z-8.601
X22.995Z-8.610
X24.122Z-8.849
X24.273Z-8.953
X24.423Z-8.996
X24.949Z-9.357
X25.701Z-9.919
X26.001Z-10.231
X26.978Z-11.581
X27.053Z-11.664
X27.880Z-12.237
X28.857Z-12.517
X29.458Z-12.786
X30.360Z-13.228
X30.585Z-13.346
X31.412Z-13.991
X31.562Z-14.000
X63.124
Y35.862
X24.724
X24.198Z-13.652
X23.521Z-13.204
X23.371Z-13.200
X23.146Z-13.066
X22.920Z-13.055
X22.469Z-13.114
X22.319Z-12.879
X22.244Z-12.697
X21.192Z-9.172
X21.041Z-8.826
X20.215Z-7.445
X19.989Z-7.021
X19.764Z-6.670
X19.689Z-6.621
X19.614Z-6.523
X19.538Z-6.474
X19.463Z-6.376
X19.388Z-6.327
X16.232
X16.157Z-6.340
X15.856Z-6.585
X15.030Z-7.292
X14.654Z-7.519
X13.902Z-8.268
X13.827Z-8.359
X13.752Z-8.401
X12.775
X12.700Z-8.415
X12.550Z-8.557
X12.249Z-8.918
X11.573Z-10.109
X11.122Z-10.798
X10.446Z-11.519
X10.295Z-11.535
X9.243
X9.018Z-11.607
X8.492Z-11.984
X7.740Z-12.560
X7.064Z-13.142
X6.162Z-13.145
X5.035Z-13.524
X4.885Z-13.642
X4.734Z-13.890
X4.584Z-14.000
X0.376
Y38.084
X6.688
X6.763Z-13.936
X6.838Z-13.898
X7.139Z-13.817
X7.966Z-13.541
X9.168Z-13.551
X9.694Z-13.569
X9.844Z-13.628
X9.995Z-13.732
X10.145Z-13.800
X10.295Z-13.922
X10.671Z-14.000
X11.272Z-13.905
X11.648Z-13.197
X11.949Z-12.683
X12.399Z-12.087
X12.625Z-11.948
X13.301Z-10.937
X13.752Z-10.233
X13.827Z-10.144
X13.978Z-10.090
X14.053Z-9.990
X14.128Z-9.950
X14.879Z-9.797
X15.030Z-9.649
X15.931Z-8.567
X16.457Z-8.249
X17.359Z-7.741
X18.186Z-7.741
X18.336Z-7.929
X18.486Z-7.929
X19.012Z-8.587
X19.614Z-9.577
X20.064Z-9.965
X20.140Z-10.094
X20.290Z-10.222
X20.741Z-11.007
X20.816Z-11.240
X20.891Z-11.393
X21.041Z-11.804
X22.093Z-14.000
X63.124
Y40.307
X20.891
X20.290Z-13.989
X20.215Z-13.953
X20.140Z-13.856
X20.064Z-13.824
X19.989Z-13.727
X19.914Z-13.694
X19.839Z-13.597
X19.764Z-13.565
X19.689Z-13.467
X19.538Z-13.403
X19.463Z-13.338
X18.712Z-13.015
X18.336Z-12.784
X17.284
X17.209Z-12.801
X16.983Z-12.929
X16.758Z-13.099
X16.382Z-13.549
X16.307Z-13.604
X16.007Z-13.720
X15.931Z-13.778
X15.856Z-13.807
X15.631Z-14.000
X0.376
Y42.529
X63.124
Y44.752
X0.376
Y46.974
X63.124
Y49.197
X0.376
Y51.419
X63.124
Y53.642
X0.376
Y55.864
X63.124
Y58.087
X0.376
Y60.309
X63.124
Y62.532
X0.376
Y64.754
X63.124
Y66.977
X0.376
Y69.199
X63.124
Y71.422
X0.376
Y73.644
X63.124
Y75.867
X0.376
Y78.089
X63.124
Y80.312
X0.376
Y82.534
X63.124
Y84.757
X0.376
Y86.979
X63.124
Y88.287
X63.034Y88.523
X0.376
G0Z5.080
G0X63.124Y0.302
G1Z-15.000F300.0
G1X0.376F1000.0
Y2.524
X63.124
Y4.747
X0.376
Y6.969
X63.124
Y9.192
X44.337
X43.661Z-14.662
X43.360Z-14.380
X43.285Z-14.330
X43.060Z-14.237
X42.158Z-13.438
X41.857Z-13.262
X41.106Z-12.899
X40.655Z-12.696
X39.528Z-12.529
X38.701Z-12.535
X37.574Z-13.074
X37.424Z-13.179
X37.273Z-13.245
X37.048Z-13.431
X36.296Z-14.103
X36.071Z-14.223
X35.320Z-14.949
X34.944Z-15.000
X0.376
Y11.414
X29.608
X30.660Z-14.776
X31.111Z-14.410
X31.863Z-13.917
X32.238Z-13.504
X33.140Z-12.694
X33.666Z-12.085
X34.267Z-11.345
X34.944Z-10.347
X35.395Z-9.706
X35.620Z-9.493
X36.597Z-8.571
X36.672
X36.822Z-8.440
X36.898Z-8.419
X38.100
X38.250Z-8.485
X38.401Z-8.530
X38.476Z-8.569
X38.626Z-8.576
X38.927Z-8.727
X39.002Z-8.744
X39.227Z-8.884
X39.302
X39.378Z-8.951
X39.528Z-9.008
X40.580Z-9.547
X41.857Z-10.648
X43.060Z-11.448
X44.337Z-12.663
X45.389Z-13.926
X46.141Z-14.731
X46.667Z-15.000
X63.124
Y13.637
X47.118
X45.690Z-13.692
X44.788Z-12.605
X43.436Z-11.342
X42.383Z-10.646
X42.233Z-10.481
X41.181Z-9.571
X40.730Z-9.340
X40.054Z-8.270
X39.904Z-8.075
X38.851Z-7.534
X38.776Z-7.512
X37.273
X37.198Z-7.462
X36.898Z-7.128
X36.822Z-7.077
X36.672Z-6.915
X36.447Z-6.757
X36.372
X36.221Z-6.650
X36.146
X35.996Z-6.545
X35.094
X34.944Z-6.631
X34.793Z-6.686
X34.718Z-6.737
X34.568Z-6.792
X33.591Z-7.463
X33.441Z-7.637
X33.215Z-7.955
X32.163Z-9.116
X32.013Z-9.349
X31.863Z-9.551
X31.111Z-10.957
X30.961Z-11.159
X29.834Z-12.506
X29.608Z-12.682
X28.782Z-13.213
X27.429Z-13.865
X26.377Z-14.332
X26.151Z-14.479
X25.250Z-15.000
X0.376
Y15.859
X22.244
X23.296Z-14.193
X23.672Z-13.777
X24.498Z-12.745
X24.799Z-12.338
X25.776Z-11.303
X26.076Z-11.046
X26.452Z-10.790
X26.527Z-10.786
X26.678Z-10.685
X26.828Z-10.681
X26.978Z-10.579
X27.730Z-10.583
X27.880Z-10.600
X27.955Z-10.579
X28.331Z-10.314
X28.857Z-9.998
X29.458Z-9.776
X29.533Z-9.725
X30.360Z-8.428
X31.412Z-6.216
X31.487Z-6.099
X32.614Z-5.254
X32.689Z-5.228
X35.996
X36.146Z-5.298
X37.048Z-6.467
X37.198Z-6.484
X37.724
X37.799Z-6.535
X38.776Z-7.621
X39.453Z-7.973
X39.528Z-8.038
X40.956Z-10.318
X41.857Z-11.677
X42.083Z-11.915
X43.060Z-12.854
X43.736Z-13.189
X44.112Z-13.404
X44.412Z-13.661
X45.690Z-15.000
X63.124
Y18.082
X43.210
X42.383Z-14.426
X41.181Z-13.145
X40.655Z-12.445
X39.904Z-11.374
X39.678Z-10.988
X38.476Z-8.603
X37.574Z-6.765
X36.447Z-5.291
X36.372Z-5.228
X32.314
X32.238Z-5.255
X32.088Z-5.366
X31.863Z-5.301
X31.788Z-5.257
X31.712Z-5.253
X31.562Z-5.145
X31.412Z-5.137
X31.337Z-5.036
X30.209Z-5.026
X30.134Z-5.068
X30.059Z-5.141
X29.984Z-5.164
X28.556Z-6.556
X27.880Z-7.179
X27.805Z-7.224
X26.828
X26.753Z-7.236
X26.602Z-7.348
X26.452Z-7.414
X25.400Z-8.048
X24.949Z-8.417
X24.874Z-8.495
X23.747Z-10.294
X23.296Z-10.792
X22.319Z-11.850
X21.492Z-12.805
X21.342Z-12.947
X20.666Z-13.853
X20.215Z-14.563
X19.538Z-15.000
X0.376
Y20.304
X17.810
X18.486Z-14.626
X18.712Z-14.366
X19.463Z-13.186
X19.614Z-12.973
X20.666Z-10.918
X20.966Z-10.392
X21.868Z-8.706
X22.018Z-8.380
X22.394Z-7.839
X22.845Z-7.414
X23.146Z-7.142
X23.521Z-6.425
X23.672Z-6.213
X23.822Z-5.960
X24.573Z-5.015
X25.475Z-4.000
X26.602Z-2.942
X27.279Z-2.626
X27.730Z-2.386
X27.955Z-2.173
X28.180Z-1.936
X28.331Z-1.854
X29.308Z-1.518
X29.909
X30.059Z-1.647
X30.285
X30.811Z-2.089
X30.961Z-2.287
X31.036Z-2.348
X31.262Z-2.646
X31.487Z-2.683
X31.938Z-2.837
X32.088Z-2.921
X32.163Z-2.940
X32.539Z-3.198
X32.764Z-3.514
X33.741Z-5.210
X33.892Z-5.398
X34.042Z-5.535
X34.267Z-5.870
X34.343Z-5.959
X34.643Z-6.146
X35.545Z-6.962
X35.846Z-7.270
X37.273Z-9.195
X38.250Z-10.697
X38.776Z-11.354
X39.302Z-12.164
X40.279Z-13.253
X40.580Z-13.553
X41.482Z-14.356
X41.782Z-14.564
X42.383Z-15.000
X63.124
Y22.527
X43.360
X42.459Z-14.588
X42.383Z-14.540
X42.158Z-14.264
X41.031Z-13.306
X40.129Z-12.672
X39.828Z-12.456
X39.002Z-11.751
X38.851Z-11.648
X37.649Z-10.055
X35.620Z-6.842
X35.244Z-6.202
X34.042Z-3.976
X33.065Z-2.487
X32.614Z-1.912
X31.788Z-0.808
X31.712Z-0.747
X31.562Z-0.701
X31.487
X31.337Z-0.660
X30.886Z-0.612
X30.736Z-0.571
X30.360Z-0.537
X30.209Z-0.522
X30.134Z-0.499
X29.984
X29.759Z-0.471
X29.683
X28.556Z0.548
X28.481Z0.598
X26.753Z0.610
X26.151Z0.609
X26.001Z0.587
X24.949Z-0.012
X24.874Z-0.079
X24.724Z-0.355
X24.573Z-0.518
X23.596Z-2.365
X23.221Z-2.884
X22.845Z-3.678
X22.394Z-4.705
X21.718Z-6.029
X21.267Z-7.035
X20.741Z-8.446
X19.989Z-9.608
X19.689Z-10.141
X18.862Z-11.451
X17.660Z-12.635
X16.608Z-13.339
X16.457Z-13.500
X16.307Z-13.606
X16.007Z-13.992
X15.255Z-15.000
X0.376
Y24.749
X14.428
X15.105Z-14.111
X15.631Z-13.032
X15.781Z-12.801
X16.082Z-12.544
X17.134Z-11.707
X18.111Z-10.877
X19.163Z-9.152
X19.463Z-8.679
X19.989Z-7.509
X20.741Z-5.815
X21.793Z-3.609
X22.093Z-3.016
X23.221Z-0.941
X23.822Z0.031
X23.972Z0.235
X24.122Z0.366
X24.348Z0.461
X25.024Z0.610
X29.383
X29.458Z0.595
X30.435Z-0.277
X30.585Z-0.471
X30.736Z-0.499
X30.961Z-0.614
X31.562Z-1.204
X31.938Z-1.697
X32.088Z-1.816
X32.915Z-2.335
X34.042Z-3.728
X34.343Z-4.261
X35.395Z-6.239
X36.597Z-8.370
X37.649Z-10.087
X38.851Z-11.511
X40.805Z-12.759
X41.181Z-13.006
X41.407Z-13.288
X42.383Z-15.000
X63.124
Y26.972
X40.956
X40.430Z-14.495
X39.603Z-13.600
X39.002Z-13.191
X38.401Z-12.681
X37.724Z-12.245
X37.349Z-11.970
X37.123Z-11.714
X36.372Z-10.382
X35.996Z-9.554
X35.169Z-7.581
X35.094Z-7.414
X34.718Z-6.847
X33.817Z-5.574
X33.591Z-5.268
X33.366Z-4.985
X33.215Z-4.890
X33.140Z-4.796
X32.764Z-4.569
X32.689
X32.539Z-4.475
X32.389
X32.238Z-4.380
X32.163Z-4.368
X31.637Z-3.744
X31.111Z-3.286
X30.736Z-3.032
X30.285Z-2.173
X30.134Z-1.912
X29.308Z0.046
X29.157Z0.356
X29.007Z0.482
X28.331Z0.550
X27.128Z0.580
X26.001Z0.544
X24.498Z0.417
X24.348Z0.396
X24.198Z0.316
X23.972Z0.017
X23.070Z-1.386
X22.770Z-1.840
X22.244Z-2.801
X21.492Z-3.857
X20.666Z-5.225
X20.064Z-6.367
X18.036Z-10.313
X17.960Z-10.437
X17.585Z-10.879
X16.908Z-11.932
X16.082Z-12.594
X16.007Z-12.666
X15.931Z-12.773
X14.879Z-14.957
X13.827Z-15.000
X0.376
Y29.194
X12.324
X13.451Z-14.650
X14.353Z-13.671
X14.428Z-13.636
X14.504Z-13.553
X14.579Z-13.518
X14.654Z-13.508
X14.729Z-13.436
X14.804Z-13.400
X14.879Z-13.390
X14.954Z-13.318
X15.030Z-13.282
X16.307Z-13.035
X16.608
X16.758Z-12.834
X17.359Z-11.925
X17.960Z-10.683
X18.336Z-10.108
X19.463Z-8.196
X19.538Z-8.107
X19.689Z-7.872
X20.290Z-7.244
X20.440Z-7.099
X20.816Z-6.401
X21.567Z-5.239
X21.943Z-4.643
X22.620Z-3.878
X23.521Z-2.666
X23.596Z-2.568
X23.747Z-2.470
X23.822Z-2.372
X23.972Z-2.229
X25.024Z-0.730
X25.099Z-0.665
X25.175Z-0.569
X25.325Z-0.566
X25.400Z-0.496
X25.550Z-0.476
X25.701Z-0.416
X26.678Z-0.426
X27.354Z-0.682
X28.105Z-0.990
X28.331Z-1.265
X28.481Z-1.562
X28.556Z-1.671
X29.533Z-4.000
X29.683Z-4.157
X30.285Z-5.029
X30.811Z-6.263
X31.487Z-7.476
X31.712Z-7.833
X31.788Z-7.858
X32.389
X32.464Z-7.884
X32.539Z-7.968
X32.689Z-8.015
X32.840Z-8.122
X32.915Z-8.132
X34.042Z-8.819
X34.117Z-8.900
X34.192Z-8.929
X34.343Z-9.109
X34.418Z-9.124
X35.019Z-9.873
X35.470Z-10.811
X36.447Z-11.718
X36.898Z-12.488
X37.649Z-13.803
X37.875Z-14.117
X38.626Z-15.000
X63.124
Y31.417
X37.198
X35.921Z-13.543
X35.770Z-13.329
X35.620Z-13.211
X35.470Z-13.008
X34.643Z-12.346
X34.343Z-12.076
X33.967Z-11.802
X33.892Z-11.781
X33.741Z-11.687
X32.840Z-11.433
X32.539Z-11.400
X32.013Z-11.121
X31.262Z-10.109
X31.036Z-9.777
X30.886Z-9.644
X30.736Z-9.428
X29.984Z-8.842
X29.608Z-8.187
X29.533Z-8.112
X29.458Z-8.005
X29.383Z-7.931
X29.308Z-7.823
X29.233Z-7.749
X29.157Z-7.726
X29.007Z-7.567
X28.782Z-7.499
X28.707Z-7.460
X28.631Z-7.385
X28.406Z-7.317
X28.331Z-7.279
X27.805Z-6.817
X27.279Z-6.434
X26.602Z-5.724
X26.151Z-5.336
X26.001Z-5.286
X25.851Z-5.155
X25.776Z-5.115
X25.325
X24.348Z-5.540
X24.198Z-5.664
X24.047Z-5.751
X23.822Z-5.993
X23.747Z-6.050
X23.521
X23.446Z-6.106
X23.371Z-6.130
X23.146
X23.070Z-6.186
X22.995Z-6.210
X22.920
X22.845Z-6.266
X22.770Z-6.290
X22.695Z-6.346
X22.620Z-6.370
X22.469Z-6.506
X22.394Z-6.586
X22.319Z-6.609
X22.169Z-6.745
X22.018Z-6.881
X20.891Z-7.234
X19.839Z-8.270
X19.689Z-8.414
X19.388Z-8.543
X18.862Z-8.872
X18.787Z-8.931
X18.712Z-8.907
X18.637Z-8.801
X18.562
X18.411Z-8.577
X18.261
X18.111Z-8.354
X17.509
X17.434Z-8.367
X17.209Z-8.564
X17.134Z-8.590
X17.059Z-8.656
X16.307Z-8.653
X16.157Z-8.793
X16.007Z-8.800
X15.856Z-8.940
X15.781Z-8.946
X15.330Z-9.378
X15.105Z-9.526
X15.030Z-9.551
X14.579Z-9.552
X14.504Z-9.590
X14.428Z-9.677
X14.353
X14.278Z-9.702
X14.203Z-9.800
X14.128Z-9.821
X13.151Z-11.197
X12.850Z-11.714
X12.249Z-12.106
X12.099Z-12.250
X11.949Z-12.242
X11.573Z-12.181
X10.972
X10.446Z-12.292
X10.070Z-12.410
X9.844Z-12.497
X9.769Z-12.553
X9.694Z-12.584
X9.619Z-12.640
X9.544Z-12.671
X9.168Z-12.960
X9.018Z-13.136
X8.266Z-14.164
X7.440Z-14.941
X6.989Z-15.000
X0.376
Y33.639
X2.705
X3.833Z-14.954
X3.908Z-14.864
X4.133Z-14.670
X4.208Z-14.627
X4.359Z-14.485
X5.110Z-14.046
X6.087Z-13.475
X6.388Z-13.363
X7.515Z-12.338
X8.567Z-11.554
X8.717Z-11.535
X9.995
X10.972Z-10.526
X12.099Z-8.528
X12.174Z-8.430
X12.399Z-8.401
X13.376
X13.451Z-8.370
X14.504Z-7.344
X14.954Z-6.970
X15.631Z-6.380
X15.706Z-6.340
X16.007Z-6.327
X19.839
X19.914Z-6.367
X20.064Z-6.615
X21.041Z-8.453
X21.267Z-8.833
X21.342Z-8.850
X22.169Z-8.601
X22.995Z-8.610
X24.122Z-8.849
X24.273Z-8.953
X24.423Z-8.996
X24.949Z-9.357
X25.701Z-9.919
X26.001Z-10.231
X26.978Z-11.581
X27.053Z-11.664
X27.880Z-12.237
X28.857Z-12.517
X29.458Z-12.786
X30.360Z-13.228
X30.585Z-13.346
X31.412Z-13.991
X31.562Z-14.036
X32.539Z-14.197
X33.817Z-14.485
X33.967Z-14.533
X34.042Z-14.546
X34.267Z-14.643
X34.343Z-14.699
X34.493Z-14.766
X35.320Z-15.000
X63.124
Y35.862
X26.001
X25.926Z-14.994
X25.625Z-14.676
X25.475Z-14.576
X25.325Z-14.461
X24.724Z-14.093
X24.198Z-13.652
X23.521Z-13.204
X23.371Z-13.200
X23.146Z-13.066
X22.920Z-13.055
X22.469Z-13.114
X22.319Z-12.879
X22.244Z-12.697
X21.192Z-9.172
X21.041Z-8.826
X20.215Z-7.445
X19.989Z-7.021
X19.764Z-6.670
X19.689Z-6.621
X19.614Z-6.523
X19.538Z-6.474
X19.463Z-6.376
X19.388Z-6.327
X16.232
X16.157Z-6.340
X15.856Z-6.585
X15.030Z-7.292
X14.654Z-7.519
X13.902Z-8.268
X13.827Z-8.359
X13.752Z-8.401
X12.775
X12.700Z-8.415
X12.550Z-8.557
X12.249Z-8.918
X11.573Z-10.109
X11.122Z-10.798
X10.446Z-11.519
X10.295Z-11.535
X9.243
X9.018Z-11.607
X8.492Z-11.984
X7.740Z-12.560
X7.064Z-13.142
X6.162Z-13.145
X5.035Z-13.524
X4.885Z-13.642
X4.734Z-13.890
X4.584Z-14.087
X3.682Z-15.000
X0.376
Y38.084
X5.260
X5.786Z-14.739
X5.862Z-14.701
X6.012Z-14.472
X6.087Z-14.434
X6.162Z-14.338
X6.237Z-14.300
X6.312Z-14.204
X6.388Z-14.166
X6.463Z-14.070
X6.538Z-14.032
X6.688Z-14.008
X6.763Z-13.936
X6.838Z-13.898
X7.139Z-13.817
X7.966Z-13.541
X9.168Z-13.551
X9.694Z-13.569
X9.844Z-13.628
X9.995Z-13.732
X10.145Z-13.800
X10.295Z-13.922
X10.671Z-14.290
X11.272Z-13.905
X11.648Z-13.197
X11.949Z-12.683
X12.399Z-12.087
X12.625Z-11.948
X13.301Z-10.937
X13.752Z-10.233
X13.827Z-10.144
X13.978Z-10.090
X14.053Z-9.990
X14.128Z-9.950
X14.879Z-9.797
X15.030Z-9.649
X15.931Z-8.567
X16.457Z-8.249
X17.359Z-7.741
X18.186Z-7.741
X18.336Z-7.929
X18.486Z-7.929
X19.012Z-8.587
X19.614Z-9.577
X20.064Z-9.965
X20.140Z-10.094
X20.290Z-10.222
X20.741Z-11.007
X20.816Z-11.240
X20.891Z-11.393
X21.041Z-11.804
X22.093Z-14.428
X22.244Z-14.679
X23.296Z-15.000
X63.124
Y40.307
X22.244
X21.267Z-14.460
X21.117Z-14.245
X21.041Z-14.188
X20.891Z-14.122
X20.290Z-13.989
X20.215Z-13.953
X20.140Z-13.856
X20.064Z-13.824
X19.989Z-13.727
X19.914Z-13.694
X19.839Z-13.597
X19.764Z-13.565
X19.689Z-13.467
X19.538Z-13.403
X19.463Z-13.338
X18.712Z-13.015
X18.336Z-12.784
X17.284
X17.209Z-12.801
X16.983Z-12.929
X16.758Z-13.099
X16.382Z-13.549
X16.307Z-13.604
X16.007Z-13.720
X15.931Z-13.778
X15.856Z-13.807
X15.631Z-14.011
X14.729Z-15.000
X0.376
Y42.529
X16.533
X16.683Z-14.936
X16.758Z-14.911
X16.833Z-14.840
X16.908Z-14.816
X16.983Z-14.745
X17.134Z-14.720
X17.209Z-14.649
X17.359Z-14.643
X17.434Z-14.624
X17.509Z-14.554
X18.186Z-14.548
X19.163Z-14.729
X19.238Z-14.747
X19.313Z-14.794
X19.538Z-14.846
X19.614Z-14.910
X19.764Z-14.945
X19.839Z-15.000
X63.124
Y44.752
X0.376
Y46.974
X63.124
Y49.197
X0.376
Y51.419
X63.124
Y53.642
X0.376
Y55.864
X63.124
Y58.087
X0.376
Y60.309
X63.124
Y62.532
X0.376
Y64.754
X63.124
Y66.977
X0.376
Y69.199
X63.124
Y71.422
X0.376
Y73.644
X63.124
Y75.867
X0.376
Y78.089
X63.124
Y80.312
X0.376
Y82.534
X63.124
Y84.757
X0.376
Y86.979
X63.124
Y88.287
X63.034Y88.523
X0.376
G0Z5.080
G0X63.124Y0.302
G1Z-16.000F300.0
G1X0.376F1000.0
Y2.524
X63.124
Y4.747
X0.376
Y6.969
X63.124
Y9.192
X45.765
X45.089Z-15.894
X44.337Z-15.323
X43.661Z-14.662
X43.360Z-14.380
X43.285Z-14.330
X43.060Z-14.237
X42.158Z-13.438
X41.857Z-13.262
X41.106Z-12.899
X40.655Z-12.696
X39.528Z-12.529
X38.701Z-12.535
X37.574Z-13.074
X37.424Z-13.179
X37.273Z-13.245
X37.048Z-13.431
X36.296Z-14.103
X36.071Z-14.223
X35.320Z-14.949
X34.944Z-15.348
X34.042Z-15.845
X33.366Z-16.000
X0.376
Y11.414
X27.579
X28.406Z-15.754
X28.707Z-15.621
X29.458Z-15.367
X29.608Z-15.320
X30.660Z-14.776
X31.111Z-14.410
X31.863Z-13.917
X32.238Z-13.504
X33.140Z-12.694
X33.666Z-12.085
X34.267Z-11.345
X34.944Z-10.347
X35.395Z-9.706
X35.620Z-9.493
X36.597Z-8.571
X36.672
X36.822Z-8.440
X36.898Z-8.419
X38.100
X38.250Z-8.485
X38.401Z-8.530
X38.476Z-8.569
X38.626Z-8.576
X38.927Z-8.727
X39.002Z-8.744
X39.227Z-8.884
X39.302
X39.378Z-8.951
X39.528Z-9.008
X40.580Z-9.547
X41.857Z-10.648
X43.060Z-11.448
X44.337Z-12.663
X45.389Z-13.926
X46.141Z-14.731
X46.667Z-15.294
X48.020Z-16.000
X63.124
Y13.637
X48.020
X47.118Z-15.294
X45.690Z-13.692
X44.788Z-12.605
X43.436Z-11.342
X42.383Z-10.646
X42.233Z-10.481
X41.181Z-9.571
X40.730Z-9.340
X40.054Z-8.270
X39.904Z-8.075
X38.851Z-7.534
X38.776Z-7.512
X37.273
X37.198Z-7.462
X36.898Z-7.128
X36.822Z-7.077
X36.672Z-6.915
X36.447Z-6.757
X36.372
X36.221Z-6.650
X36.146
X35.996Z-6.545
X35.094
X34.944Z-6.631
X34.793Z-6.686
X34.718Z-6.737
X34.568Z-6.792
X33.591Z-7.463
X33.441Z-7.637
X33.215Z-7.955
X32.163Z-9.116
X32.013Z-9.349
X31.863Z-9.551
X31.111Z-10.957
X30.961Z-11.159
X29.834Z-12.506
X29.608Z-12.682
X28.782Z-13.213
X27.429Z-13.865
X26.377Z-14.332
X26.151Z-14.479
X25.250Z-15.227
X24.724Z-15.564
X23.897Z-16.000
X0.376
Y15.859
X20.891
X21.192Z-15.761
X22.244Z-15.029
X23.296Z-14.193
X23.672Z-13.777
X24.498Z-12.745
X24.799Z-12.338
X25.776Z-11.303
X26.076Z-11.046
X26.452Z-10.790
X26.527Z-10.786
X26.678Z-10.685
X26.828Z-10.681
X26.978Z-10.579
X27.730Z-10.583
X27.880Z-10.600
X27.955Z-10.579
X28.331Z-10.314
X28.857Z-9.998
X29.458Z-9.776
X29.533Z-9.725
X30.360Z-8.428
X31.412Z-6.216
X31.487Z-6.099
X32.614Z-5.254
X32.689Z-5.228
X35.996
X36.146Z-5.298
X37.048Z-6.467
X37.198Z-6.484
X37.724
X37.799Z-6.535
X38.776Z-7.621
X39.453Z-7.973
X39.528Z-8.038
X40.956Z-10.318
X41.857Z-11.677
X42.083Z-11.915
X43.060Z-12.854
X43.736Z-13.189
X44.112Z-13.404
X44.412Z-13.661
X45.690Z-15.025
X46.667Z-16.000
X63.124
Y18.082
X44.488
X43.210Z-15.148
X42.383Z-14.426
X41.181Z-13.145
X40.655Z-12.445
X39.904Z-11.374
X39.678Z-10.988
X38.476Z-8.603
X37.574Z-6.765
X36.447Z-5.291
X36.372Z-5.228
X32.314
X32.238Z-5.255
X32.088Z-5.366
X31.863Z-5.301
X31.788Z-5.257
X31.712Z-5.253
X31.562Z-5.145
X31.412Z-5.137
X31.337Z-5.036
X30.209Z-5.026
X30.134Z-5.068
X30.059Z-5.141
X29.984Z-5.164
X28.556Z-6.556
X27.880Z-7.179
X27.805Z-7.224
X26.828
X26.753Z-7.236
X26.602Z-7.348
X26.452Z-7.414
X25.400Z-8.048
X24.949Z-8.417
X24.874Z-8.495
X23.747Z-10.294
X23.296Z-10.792
X22.319Z-11.850
X21.492Z-12.805
X21.342Z-12.947
X20.666Z-13.853
X20.215Z-14.563
X19.538Z-15.279
X19.012Z-15.956
X18.186Z-16.000
X0.376
Y20.304
X16.833
X17.509Z-15.515
X17.810Z-15.318
X18.486Z-14.626
X18.712Z-14.366
X19.463Z-13.186
X19.614Z-12.973
X20.666Z-10.918
X20.966Z-10.392
X21.868Z-8.706
X22.018Z-8.380
X22.394Z-7.839
X22.845Z-7.414
X23.146Z-7.142
X23.521Z-6.425
X23.672Z-6.213
X23.822Z-5.960
X24.573Z-5.015
X25.475Z-4.000
X26.602Z-2.942
X27.279Z-2.626
X27.730Z-2.386
X27.955Z-2.173
X28.180Z-1.936
X28.331Z-1.854
X29.308Z-1.518
X29.909
X30.059Z-1.647
X30.285
X30.811Z-2.089
X30.961Z-2.287
X31.036Z-2.348
X31.262Z-2.646
X31.487Z-2.683
X31.938Z-2.837
X32.088Z-2.921
X32.163Z-2.940
X32.539Z-3.198
X32.764Z-3.514
X33.741Z-5.210
X33.892Z-5.398
X34.042Z-5.535
X34.267Z-5.870
X34.343Z-5.959
X34.643Z-6.146
X35.545Z-6.962
X35.846Z-7.270
X37.273Z-9.195
X38.250Z-10.697
X38.776Z-11.354
X39.302Z-12.164
X40.279Z-13.253
X40.580Z-13.553
X41.482Z-14.356
X41.782Z-14.564
X42.383Z-15.044
X43.210Z-15.416
X43.586Z-15.613
X44.488Z-16.000
X63.124
Y22.527
X45.765
X44.488Z-15.972
X43.360Z-15.446
X42.459Z-14.588
X42.383Z-14.540
X42.158Z-14.264
X41.031Z-13.306
X40.129Z-12.672
X39.828Z-12.456
X39.002Z-11.751
X38.851Z-11.648
X37.649Z-10.055
X35.620Z-6.842
X35.244Z-6.202
X34.042Z-3.976
X33.065Z-2.487
X32.614Z-1.912
X31.788Z-0.808
X31.712Z-0.747
X31.562Z-0.701
X31.487
X31.337Z-0.660
X30.886Z-0.612
X30.736Z-0.571
X30.360Z-0.537
X30.209Z-0.522
X30.134Z-0.499
X29.984
X29.759Z-0.471
X29.683
X28.556Z0.548
X28.481Z0.598
X26.753Z0.610
X26.151Z0.609
X26.001Z0.587
X24.949Z-0.012
X24.874Z-0.079
X24.724Z-0.355
X24.573Z-0.518
X23.596Z-2.365
X23.221Z-2.884
X22.845Z-3.678
X22.394Z-4.705
X21.718Z-6.029
X21.267Z-7.035
X20.741Z-8.446
X19.989Z-9.608
X19.689Z-10.141
X18.862Z-11.451
X17.660Z-12.635
X16.608Z-13.339
X16.457Z-13.500
X16.307Z-13.606
X16.007Z-13.992
X15.255Z-15.091
X14.954Z-15.358
X14.504Z-15.844
X14.128Z-16.000
X0.376
Y24.749
X13.602
X14.428Z-15.108
X15.105Z-14.111
X15.631Z-13.032
X15.781Z-12.801
X16.082Z-12.544
X17.134Z-11.707
X18.111Z-10.877
X19.163Z-9.152
X19.463Z-8.679
X19.989Z-7.509
X20.741Z-5.815
X21.793Z-3.609
X22.093Z-3.016
X23.221Z-0.941
X23.822Z0.031
X23.972Z0.235
X24.122Z0.366
X24.348Z0.461
X25.024Z0.610
X29.383
X29.458Z0.595
X30.435Z-0.277
X30.585Z-0.471
X30.736Z-0.499
X30.961Z-0.614
X31.562Z-1.204
X31.938Z-1.697
X32.088Z-1.816
X32.915Z-2.335
X34.042Z-3.728
X34.343Z-4.261
X35.395Z-6.239
X36.597Z-8.370
X37.649Z-10.087
X38.851Z-11.511
X40.805Z-12.759
X41.181Z-13.006
X41.407Z-13.288
X42.383Z-15.004
X42.759Z-15.386
X43.436Z-16.000
X63.124
Y26.972
X42.158
X40.956Z-15.358
X40.430Z-14.495
X39.603Z-13.600
X39.002Z-13.191
X38.401Z-12.681
X37.724Z-12.245
X37.349Z-11.970
X37.123Z-11.714
X36.372Z-10.382
X35.996Z-9.554
X35.169Z-7.581
X35.094Z-7.414
X34.718Z-6.847
X33.817Z-5.574
X33.591Z-5.268
X33.366Z-4.985
X33.215Z-4.890
X33.140Z-4.796
X32.764Z-4.569
X32.689
X32.539Z-4.475
X32.389
X32.238Z-4.380
X32.163Z-4.368
X31.637Z-3.744
X31.111Z-3.286
X30.736Z-3.032
X30.285Z-2.173
X30.134Z-1.912
X29.308Z0.046
X29.157Z0.356
X29.007Z0.482
X28.331Z0.550
X27.128Z0.580
X26.001Z0.544
X24.498Z0.417
X24.348Z0.396
X24.198Z0.316
X23.972Z0.017
X23.070Z-1.386
X22.770Z-1.840
X22.244Z-2.801
X21.492Z-3.857
X20.666Z-5.225
X20.064Z-6.367
X18.036Z-10.313
X17.960Z-10.437
X17.585Z-10.879
X16.908Z-11.932
X16.082Z-12.594
X16.007Z-12.666
X15.931Z-12.773
X14.879Z-14.957
X13.827Z-16.000
X0.376
Y29.194
X9.769
X9.920Z-15.998
X9.995Z-15.948
X10.145Z-15.904
X10.220Z-15.854
X10.370Z-15.837
X11.422Z-15.848
X11.648Z-15.856
X12.249Z-15.731
X12.324Z-15.698
X13.451Z-14.650
X14.353Z-13.671
X14.428Z-13.636
X14.504Z-13.553
X14.579Z-13.518
X14.654Z-13.508
X14.729Z-13.436
X14.804Z-13.400
X14.879Z-13.390
X14.954Z-13.318
X15.030Z-13.282
X16.307Z-13.035
X16.608
X16.758Z-12.834
X17.359Z-11.925
X17.960Z-10.683
X18.336Z-10.108
X19.463Z-8.196
X19.538Z-8.107
X19.689Z-7.872
X20.290Z-7.244
X20.440Z-7.099
X20.816Z-6.401
X21.567Z-5.239
X21.943Z-4.643
X22.620Z-3.878
X23.521Z-2.666
X23.596Z-2.568
X23.747Z-2.470
X23.822Z-2.372
X23.972Z-2.229
X25.024Z-0.730
X25.099Z-0.665
X25.175Z-0.569
X25.325Z-0.566
X25.400Z-0.496
X25.550Z-0.476
X25.701Z-0.416
X26.678Z-0.426
X27.354Z-0.682
X28.105Z-0.990
X28.331Z-1.265
X28.481Z-1.562
X28.556Z-1.671
X29.533Z-4.000
X29.683Z-4.157
X30.285Z-5.029
X30.811Z-6.263
X31.487Z-7.476
X31.712Z-7.833
X31.788Z-7.858
X32.389
X32.464Z-7.884
X32.539Z-7.968
X32.689Z-8.015
X32.840Z-8.122
X32.915Z-8.132
X34.042Z-8.819
X34.117Z-8.900
X34.192Z-8.929
X34.343Z-9.109
X34.418Z-9.124
X35.019Z-9.873
X35.470Z-10.811
X36.447Z-11.718
X36.898Z-12.488
X37.649Z-13.803
X37.875Z-14.117
X38.626Z-15.288
X39.227Z-15.748
X39.828Z-16.000
X63.124
Y31.417
X38.250
X37.198Z-15.195
X35.921Z-13.543
X35.770Z-13.329
X35.620Z-13.211
X35.470Z-13.008
X34.643Z-12.346
X34.343Z-12.076
X33.967Z-11.802
X33.892Z-11.781
X33.741Z-11.687
X32.840Z-11.433
X32.539Z-11.400
X32.013Z-11.121
X31.262Z-10.109
X31.036Z-9.777
X30.886Z-9.644
X30.736Z-9.428
X29.984Z-8.842
X29.608Z-8.187
X29.533Z-8.112
X29.458Z-8.005
X29.383Z-7.931
X29.308Z-7.823
X29.233Z-7.749
X29.157Z-7.726
X29.007Z-7.567
X28.782Z-7.499
X28.707Z-7.460
X28.631Z-7.385
X28.406Z-7.317
X28.331Z-7.279
X27.805Z-6.817
X27.279Z-6.434
X26.602Z-5.724
X26.151Z-5.336
X26.001Z-5.286
X25.851Z-5.155
X25.776Z-5.115
X25.325
X24.348Z-5.540
X24.198Z-5.664
X24.047Z-5.751
X23.822Z-5.993
X23.747Z-6.050
X23.521
X23.446Z-6.106
X23.371Z-6.130
X23.146
X23.070Z-6.186
X22.995Z-6.210
X22.920
X22.845Z-6.266
X22.770Z-6.290
X22.695Z-6.346
X22.620Z-6.370
X22.469Z-6.506
X22.394Z-6.586
X22.319Z-6.609
X22.169Z-6.745
X22.018Z-6.881
X20.891Z-7.234
X19.839Z-8.270
X19.689Z-8.414
X19.388Z-8.543
X18.862Z-8.872
X18.787Z-8.931
X18.712Z-8.907
X18.637Z-8.801
X18.562
X18.411Z-8.577
X18.261
X18.111Z-8.354
X17.509
X17.434Z-8.367
X17.209Z-8.564
X17.134Z-8.590
X17.059Z-8.656
X16.307Z-8.653
X16.157Z-8.793
X16.007Z-8.800
X15.856Z-8.940
X15.781Z-8.946
X15.330Z-9.378
X15.105Z-9.526
X15.030Z-9.551
X14.579Z-9.552
X14.504Z-9.590
X14.428Z-9.677
X14.353
X14.278Z-9.702
X14.203Z-9.800
X14.128Z-9.821
X13.151Z-11.197
X12.850Z-11.714
X12.249Z-12.106
X12.099Z-12.250
X11.949Z-12.242
X11.573Z-12.181
X10.972
X10.446Z-12.292
X10.070Z-12.410
X9.844Z-12.497
X9.769Z-12.553
X9.694Z-12.584
X9.619Z-12.640
X9.544Z-12.671
X9.168Z-12.960
X9.018Z-13.136
X8.266Z-14.164
X7.440Z-14.941
X6.989Z-15.231
X6.388Z-15.710
X5.937Z-15.974
X5.786Z-16.000
X0.376
Y33.639
X2.705
X3.833Z-14.954
X3.908Z-14.864
X4.133Z-14.670
X4.208Z-14.627
X4.359Z-14.485
X5.110Z-14.046
X6.087Z-13.475
X6.388Z-13.363
X7.515Z-12.338
X8.567Z-11.554
X8.717Z-11.535
X9.995
X10.972Z-10.526
X12.099Z-8.528
X12.174Z-8.430
X12.399Z-8.401
X13.376
X13.451Z-8.370
X14.504Z-7.344
X14.954Z-6.970
X15.631Z-6.380
X15.706Z-6.340
X16.007Z-6.327
X19.839
X19.914Z-6.367
X20.064Z-6.615
X21.041Z-8.453
X21.267Z-8.833
X21.342Z-8.850
X22.169Z-8.601
X22.995Z-8.610
X24.122Z-8.849
X24.273Z-8.953
X24.423Z-8.996
X24.949Z-9.357
X25.701Z-9.919
X26.001Z-10.231
X26.978Z-11.581
X27.053Z-11.664
X27.880Z-12.237
X28.857Z-12.517
X29.458Z-12.786
X30.360Z-13.228
X30.585Z-13.346
X31.412Z-13.991
X31.562Z-14.036
X32.539Z-14.197
X33.817Z-14.485
X33.967Z-14.533
X34.042Z-14.546
X34.267Z-14.643
X34.343Z-14.699
X34.493Z-14.766
X35.320Z-15.415
X36.146Z-15.845
X36.447Z-16.000
X63.124
Y35.862
X32.464
X32.013Z-15.947
X30.886Z-15.995
X30.285Z-15.998
X29.458Z-15.882
X28.932Z-15.709
X28.707Z-15.696
X28.481Z-15.630
X27.955Z-15.590
X27.053Z-15.406
X26.602Z-15.190
X26.001Z-15.040
X25.926Z-14.994
X25.625Z-14.676
X25.475Z-14.576
X25.325Z-14.461
X24.724Z-14.093
X24.198Z-13.652
X23.521Z-13.204
X23.371Z-13.200
X23.146Z-13.066
X22.920Z-13.055
X22.469Z-13.114
X22.319Z-12.879
X22.244Z-12.697
X21.192Z-9.172
X21.041Z-8.826
X20.215Z-7.445
X19.989Z-7.021
X19.764Z-6.670
X19.689Z-6.621
X19.614Z-6.523
X19.538Z-6.474
X19.463Z-6.376
X19.388Z-6.327
X16.232
X16.157Z-6.340
X15.856Z-6.585
X15.030Z-7.292
X14.654Z-7.519
X13.902Z-8.268
X13.827Z-8.359
X13.752Z-8.401
X12.775
X12.700Z-8.415
X12.550Z-8.557
X12.249Z-8.918
X11.573Z-10.109
X11.122Z-10.798
X10.446Z-11.519
X10.295Z-11.535
X9.243
X9.018Z-11.607
X8.492Z-11.984
X7.740Z-12.560
X7.064Z-13.142
X6.162Z-13.145
X5.035Z-13.524
X4.885Z-13.642
X4.734Z-13.890
X4.584Z-14.087
X3.682Z-15.637
X3.231Z-16.000
X0.376
Y38.084
X4.885
X5.260Z-15.625
X5.786Z-14.739
X5.862Z-14.701
X6.012Z-14.472
X6.087Z-14.434
X6.162Z-14.338
X6.237Z-14.300
X6.312Z-14.204
X6.388Z-14.166
X6.463Z-14.070
X6.538Z-14.032
X6.688Z-14.008
X6.763Z-13.936
X6.838Z-13.898
X7.139Z-13.817
X7.966Z-13.541
X9.168Z-13.551
X9.694Z-13.569
X9.844Z-13.628
X9.995Z-13.732
X10.145Z-13.800
X10.295Z-13.922
X10.671Z-14.290
X11.272Z-13.905
X11.648Z-13.197
X11.949Z-12.683
X12.399Z-12.087
X12.625Z-11.948
X13.301Z-10.937
X13.752Z-10.233
X13.827Z-10.144
X13.978Z-10.090
X14.053Z-9.990
X14.128Z-9.950
X14.879Z-9.797
X15.030Z-9.649
X15.931Z-8.567
X16.457Z-8.249
X17.359Z-7.741
X18.186Z-7.741
X18.336Z-7.929
X18.486Z-7.929
X19.012Z-8.587
X19.614Z-9.577
X20.064Z-9.965
X20.140Z-10.094
X20.290Z-10.222
X20.741Z-11.007
X20.816Z-11.240
X20.891Z-11.393
X21.041Z-11.804
X22.093Z-14.428
X22.244Z-14.679
X23.296Z-16.000
X63.124
Y40.307
X22.244
X21.267Z-14.460
X21.117Z-14.245
X21.041Z-14.188
X20.891Z-14.122
X20.290Z-13.989
X20.215Z-13.953
X20.140Z-13.856
X20.064Z-13.824
X19.989Z-13.727
X19.914Z-13.694
X19.839Z-13.597
X19.764Z-13.565
X19.689Z-13.467
X19.538Z-13.403
X19.463Z-13.338
X18.712Z-13.015
X18.336Z-12.784
X17.284
X17.209Z-12.801
X16.983Z-12.929
X16.758Z-13.099
X16.382Z-13.549
X16.307Z-13.604
X16.007Z-13.720
X15.931Z-13.778
X15.856Z-13.807
X15.631Z-14.011
X14.729Z-15.183
X14.504Z-15.437
X14.278Z-15.655
X14.128Z-15.721
X13.902Z-15.801
X13.752Z-15.867
X13.527Z-16.000
X0.376
Y42.529
X13.527
X14.053Z-15.921
X15.030Z-15.790
X15.856Z-15.726
X15.931Z-15.723
X16.007Z-15.675
X16.382Z-15.198
X16.457Z-15.127
X16.533Z-15.102
X16.683Z-14.936
X16.758Z-14.911
X16.833Z-14.840
X16.908Z-14.816
X16.983Z-14.745
X17.134Z-14.720
X17.209Z-14.649
X17.359Z-14.643
X17.434Z-14.624
X17.509Z-14.554
X18.186Z-14.548
X19.163Z-14.729
X19.238Z-14.747
X19.313Z-14.794
X19.538Z-14.846
X19.614Z-14.910
X19.764Z-14.945
X19.839Z-15.013
X19.914Z-15.044
X19.989Z-15.112
X20.064Z-15.143
X20.140Z-15.211
X20.215Z-15.310
X20.290Z-15.342
X20.365Z-15.410
X20.816Z-16.000
X63.124
Y44.752
X0.376
Y46.974
X63.124
Y49.197
X0.376
Y51.419
X63.124
Y53.642
X0.376
Y55.864
X63.124
Y58.087
X0.376
Y60.309
X63.124
Y62.532
X0.376
Y64.754
X63.124
Y66.977
X0.376
Y69.199
X63.124
Y71.422
X0.376
Y73.644
X63.124
Y75.867
X0.376
Y78.089
X63.124
Y80.312
X0.376
Y82.534
X63.124
Y84.757
X0.376
Y86.979
X63.124
Y88.287
X63.034Y88.523
X0.376
G0Z5.080
G0X63.124Y0.302
G1Z-17.000F300.0
G1X0.376F1000.0
Y2.524
X63.124
Y4.747
X0.376
Y6.969
X63.124
Y9.192
X46.967
X46.291Z-16.885
X45.765Z-16.526
X45.089Z-15.894
X44.337Z-15.323
X43.661Z-14.662
X43.360Z-14.380
X43.285Z-14.330
X43.060Z-14.237
X42.158Z-13.438
X41.857Z-13.262
X41.106Z-12.899
X40.655Z-12.696
X39.528Z-12.529
X38.701Z-12.535
X37.574Z-13.074
X37.424Z-13.179
X37.273Z-13.245
X37.048Z-13.431
X36.296Z-14.103
X36.071Z-14.223
X35.320Z-14.949
X34.944Z-15.348
X34.042Z-15.845
X33.366Z-16.026
X32.915Z-16.155
X32.764Z-16.183
X32.689Z-16.214
X32.464Z-16.248
X31.562Z-16.633
X30.510Z-16.879
X29.909Z-16.973
X29.082Z-17.000
X0.376
Y11.414
X24.949
X25.926Z-16.711
X26.377Z-16.502
X27.204Z-16.204
X27.579Z-16.038
X28.406Z-15.754
X28.707Z-15.621
X29.458Z-15.367
X29.608Z-15.320
X30.660Z-14.776
X31.111Z-14.410
X31.863Z-13.917
X32.238Z-13.504
X33.140Z-12.694
X33.666Z-12.085
X34.267Z-11.345
X34.944Z-10.347
X35.395Z-9.706
X35.620Z-9.493
X36.597Z-8.571
X36.672
X36.822Z-8.440
X36.898Z-8.419
X38.100
X38.250Z-8.485
X38.401Z-8.530
X38.476Z-8.569
X38.626Z-8.576
X38.927Z-8.727
X39.002Z-8.744
X39.227Z-8.884
X39.302
X39.378Z-8.951
X39.528Z-9.008
X40.580Z-9.547
X41.857Z-10.648
X43.060Z-11.448
X44.337Z-12.663
X45.389Z-13.926
X46.141Z-14.731
X46.667Z-15.294
X48.020Z-16.569
X48.470Z-17.000
X63.124
Y13.637
X49.372
X48.320Z-16.434
X48.020Z-16.133
X47.118Z-15.294
X45.690Z-13.692
X44.788Z-12.605
X43.436Z-11.342
X42.383Z-10.646
X42.233Z-10.481
X41.181Z-9.571
X40.730Z-9.340
X40.054Z-8.270
X39.904Z-8.075
X38.851Z-7.534
X38.776Z-7.512
X37.273
X37.198Z-7.462
X36.898Z-7.128
X36.822Z-7.077
X36.672Z-6.915
X36.447Z-6.757
X36.372
X36.221Z-6.650
X36.146
X35.996Z-6.545
X35.094
X34.944Z-6.631
X34.793Z-6.686
X34.718Z-6.737
X34.568Z-6.792
X33.591Z-7.463
X33.441Z-7.637
X33.215Z-7.955
X32.163Z-9.116
X32.013Z-9.349
X31.863Z-9.551
X31.111Z-10.957
X30.961Z-11.159
X29.834Z-12.506
X29.608Z-12.682
X28.782Z-13.213
X27.429Z-13.865
X26.377Z-14.332
X26.151Z-14.479
X25.250Z-15.227
X24.724Z-15.564
X23.897Z-16.174
X22.770Z-16.833
X22.244Z-17.000
X0.376
Y15.859
X19.163
X19.764Z-16.863
X20.290Z-16.475
X20.891Z-16.057
X21.192Z-15.761
X22.244Z-15.029
X23.296Z-14.193
X23.672Z-13.777
X24.498Z-12.745
X24.799Z-12.338
X25.776Z-11.303
X26.076Z-11.046
X26.452Z-10.790
X26.527Z-10.786
X26.678Z-10.685
X26.828Z-10.681
X26.978Z-10.579
X27.730Z-10.583
X27.880Z-10.600
X27.955Z-10.579
X28.331Z-10.314
X28.857Z-9.998
X29.458Z-9.776
X29.533Z-9.725
X30.360Z-8.428
X31.412Z-6.216
X31.487Z-6.099
X32.614Z-5.254
X32.689Z-5.228
X35.996
X36.146Z-5.298
X37.048Z-6.467
X37.198Z-6.484
X37.724
X37.799Z-6.535
X38.776Z-7.621
X39.453Z-7.973
X39.528Z-8.038
X40.956Z-10.318
X41.857Z-11.677
X42.083Z-11.915
X43.060Z-12.854
X43.736Z-13.189
X44.112Z-13.404
X44.412Z-13.661
X45.690Z-15.025
X46.667Z-16.221
X47.118Z-16.684
X47.794Z-17.000
X63.124
Y18.082
X47.193
X46.216Z-16.988
